; generated by circle_xzb_from_calibration.py
; axes: X→X, Z→Z, pull→B, rot→C
; model:
;   X_tip = X_stage + sgn*r(B)   (sgn=+1 at C=0, sgn=-1 at C=180)
;   Z_tip = Z_stage + z(B)
;   tip_angle_deg = tip_angle(B)
; sequence: lower half C=180 with uncurl 180->0, upper half C=0 with curl 0->180.
; calibrated r(B) range (sampled): [1.151, 6.433] mm
; calibrated tip-angle range: [0.000, 180.000] deg
; B clamp: [-5.600, -0.000]
G90
G1 C180.000 F3000
G1 X41.151 Z-128.002 B-5.600 F300
G1 X41.155 Z-128.438 B-5.600 F300
G1 X41.167 Z-128.874 B-5.600 F300
G1 X41.186 Z-129.310 B-5.600 F300
G1 X41.215 Z-129.750 B-5.597 F300
G1 X41.317 Z-130.276 B-5.539 F300
G1 X41.421 Z-130.792 B-5.484 F300
G1 X41.529 Z-131.298 B-5.431 F300
G1 X41.640 Z-131.796 B-5.381 F300
G1 X41.755 Z-132.286 B-5.334 F300
G1 X41.875 Z-132.771 B-5.288 F300
G1 X42.001 Z-133.249 B-5.243 F300
G1 X42.131 Z-133.721 B-5.200 F300
G1 X42.268 Z-134.188 B-5.158 F300
G1 X42.409 Z-134.650 B-5.118 F300
G1 X42.557 Z-135.107 B-5.078 F300
G1 X42.711 Z-135.559 B-5.039 F300
G1 X42.870 Z-136.006 B-5.001 F300
G1 X43.036 Z-136.448 B-4.964 F300
G1 X43.208 Z-136.886 B-4.928 F300
G1 X43.386 Z-137.319 B-4.892 F300
G1 X43.570 Z-137.748 B-4.857 F300
G1 X43.760 Z-138.172 B-4.823 F300
G1 X43.957 Z-138.591 B-4.789 F300
G1 X44.160 Z-139.006 B-4.755 F300
G1 X44.369 Z-139.416 B-4.722 F300
G1 X44.585 Z-139.822 B-4.690 F300
G1 X44.806 Z-140.222 B-4.657 F300
G1 X45.034 Z-140.618 B-4.626 F300
G1 X45.268 Z-141.009 B-4.594 F300
G1 X45.508 Z-141.395 B-4.563 F300
G1 X45.754 Z-141.776 B-4.533 F300
G1 X46.007 Z-142.152 B-4.502 F300
G1 X46.265 Z-142.523 B-4.472 F300
G1 X46.529 Z-142.889 B-4.442 F300
G1 X46.799 Z-143.250 B-4.413 F300
G1 X47.075 Z-143.605 B-4.384 F300
G1 X47.357 Z-143.954 B-4.355 F300
G1 X47.644 Z-144.299 B-4.326 F300
G1 X47.938 Z-144.637 B-4.297 F300
G1 X48.236 Z-144.970 B-4.269 F300
G1 X48.541 Z-145.298 B-4.241 F300
G1 X48.850 Z-145.619 B-4.213 F300
G1 X49.165 Z-145.935 B-4.185 F300
G1 X49.486 Z-146.245 B-4.157 F300
G1 X49.812 Z-146.549 B-4.130 F300
G1 X50.142 Z-146.846 B-4.103 F300
G1 X50.478 Z-147.138 B-4.076 F300
G1 X50.819 Z-147.423 B-4.049 F300
G1 X51.165 Z-147.702 B-4.022 F300
G1 X51.515 Z-147.975 B-3.995 F300
G1 X51.871 Z-148.241 B-3.969 F300
G1 X52.231 Z-148.500 B-3.942 F300
G1 X52.595 Z-148.753 B-3.916 F300
G1 X52.964 Z-149.000 B-3.890 F300
G1 X53.337 Z-149.239 B-3.864 F300
G1 X53.714 Z-149.472 B-3.838 F300
G1 X54.096 Z-149.698 B-3.812 F300
G1 X54.481 Z-149.917 B-3.786 F300
G1 X54.871 Z-150.130 B-3.761 F300
G1 X55.264 Z-150.335 B-3.735 F300
G1 X55.661 Z-150.533 B-3.710 F300
G1 X56.062 Z-150.724 B-3.684 F300
G1 X56.466 Z-150.907 B-3.659 F300
G1 X56.873 Z-151.084 B-3.634 F300
G1 X57.284 Z-151.253 B-3.608 F300
G1 X57.697 Z-151.414 B-3.583 F300
G1 X58.114 Z-151.569 B-3.558 F300
G1 X58.534 Z-151.716 B-3.533 F300
G1 X58.956 Z-151.855 B-3.508 F300
G1 X59.381 Z-151.987 B-3.483 F300
G1 X59.809 Z-152.111 B-3.458 F300
G1 X60.239 Z-152.228 B-3.433 F300
G1 X60.672 Z-152.337 B-3.409 F300
G1 X61.106 Z-152.438 B-3.384 F300
G1 X61.543 Z-152.531 B-3.359 F300
G1 X61.982 Z-152.617 B-3.334 F300
G1 X62.422 Z-152.695 B-3.310 F300
G1 X62.865 Z-152.766 B-3.285 F300
G1 X63.308 Z-152.828 B-3.260 F300
G1 X63.754 Z-152.882 B-3.236 F300
G1 X64.200 Z-152.929 B-3.211 F300
G1 X64.648 Z-152.968 B-3.187 F300
G1 X65.097 Z-152.999 B-3.162 F300
G1 X65.546 Z-153.022 B-3.138 F300
G1 X65.997 Z-153.037 B-3.113 F300
G1 X66.448 Z-153.044 B-3.088 F300
G1 X66.900 Z-153.043 B-3.064 F300
G1 X67.352 Z-153.034 B-3.039 F300
G1 X67.805 Z-153.017 B-3.015 F300
G1 X68.258 Z-152.992 B-2.990 F300
G1 X68.710 Z-152.959 B-2.966 F300
G1 X69.163 Z-152.919 B-2.941 F300
G1 X69.616 Z-152.870 B-2.916 F300
G1 X70.068 Z-152.813 B-2.892 F300
G1 X70.519 Z-152.749 B-2.867 F300
G1 X70.971 Z-152.676 B-2.842 F300
G1 X71.421 Z-152.596 B-2.818 F300
G1 X71.871 Z-152.508 B-2.793 F300
G1 X72.319 Z-152.411 B-2.768 F300
G1 X72.767 Z-152.307 B-2.743 F300
G1 X73.213 Z-152.195 B-2.718 F300
G1 X73.658 Z-152.076 B-2.693 F300
G1 X74.101 Z-151.948 B-2.668 F300
G1 X74.543 Z-151.813 B-2.643 F300
G1 X74.983 Z-151.670 B-2.618 F300
G1 X75.421 Z-151.519 B-2.593 F300
G1 X75.858 Z-151.361 B-2.568 F300
G1 X76.292 Z-151.195 B-2.543 F300
G1 X76.724 Z-151.022 B-2.517 F300
G1 X77.154 Z-150.841 B-2.492 F300
G1 X77.581 Z-150.652 B-2.466 F300
G1 X78.006 Z-150.456 B-2.441 F300
G1 X78.428 Z-150.253 B-2.415 F300
G1 X78.847 Z-150.042 B-2.389 F300
G1 X79.263 Z-149.824 B-2.364 F300
G1 X79.677 Z-149.599 B-2.338 F300
G1 X80.087 Z-149.366 B-2.312 F300
G1 X80.494 Z-149.126 B-2.285 F300
G1 X80.897 Z-148.880 B-2.259 F300
G1 X81.297 Z-148.626 B-2.233 F300
G1 X81.694 Z-148.365 B-2.206 F300
G1 X82.087 Z-148.098 B-2.180 F300
G1 X82.476 Z-147.823 B-2.153 F300
G1 X82.861 Z-147.542 B-2.126 F300
G1 X83.243 Z-147.254 B-2.099 F300
G1 X83.620 Z-146.960 B-2.072 F300
G1 X83.993 Z-146.659 B-2.044 F300
G1 X84.362 Z-146.351 B-2.017 F300
G1 X84.726 Z-146.037 B-1.989 F300
G1 X85.087 Z-145.717 B-1.961 F300
G1 X85.442 Z-145.390 B-1.933 F300
G1 X85.793 Z-145.058 B-1.905 F300
G1 X86.139 Z-144.719 B-1.876 F300
G1 X86.481 Z-144.374 B-1.847 F300
G1 X86.817 Z-144.023 B-1.818 F300
G1 X87.149 Z-143.667 B-1.789 F300
G1 X87.476 Z-143.305 B-1.760 F300
G1 X87.798 Z-142.937 B-1.730 F300
G1 X88.114 Z-142.563 B-1.700 F300
G1 X88.426 Z-142.184 B-1.669 F300
G1 X88.732 Z-141.799 B-1.639 F300
G1 X89.033 Z-141.410 B-1.608 F300
G1 X89.328 Z-141.015 B-1.576 F300
G1 X89.618 Z-140.614 B-1.545 F300
G1 X89.903 Z-140.209 B-1.513 F300
G1 X90.182 Z-139.799 B-1.480 F300
G1 X90.456 Z-139.384 B-1.447 F300
G1 X90.724 Z-138.963 B-1.414 F300
G1 X90.987 Z-138.539 B-1.380 F300
G1 X91.244 Z-138.109 B-1.345 F300
G1 X91.496 Z-137.675 B-1.310 F300
G1 X91.742 Z-137.237 B-1.274 F300
G1 X91.983 Z-136.794 B-1.238 F300
G1 X92.218 Z-136.347 B-1.201 F300
G1 X92.448 Z-135.895 B-1.163 F300
G1 X92.673 Z-135.439 B-1.125 F300
G1 X92.892 Z-134.979 B-1.085 F300
G1 X93.106 Z-134.515 B-1.044 F300
G1 X93.315 Z-134.046 B-1.003 F300
G1 X93.519 Z-133.574 B-0.960 F300
G1 X93.719 Z-133.097 B-0.916 F300
G1 X93.915 Z-132.616 B-0.870 F300
G1 X94.106 Z-132.130 B-0.822 F300
G1 X94.294 Z-131.641 B-0.772 F300
G1 X94.479 Z-131.146 B-0.720 F300
G1 X94.662 Z-130.647 B-0.666 F300
G1 X94.843 Z-130.142 B-0.607 F300
G1 X95.025 Z-129.631 B-0.545 F300
G1 X95.210 Z-129.112 B-0.477 F300
G1 X95.402 Z-128.585 B-0.401 F300
G1 X95.606 Z-128.045 B-0.315 F300
G1 X95.838 Z-127.484 B-0.209 F300
G1 X96.150 Z-126.876 B-0.056 F300
G1 X96.296 Z-126.382 B-0.000 F300
G1 X96.338 Z-125.948 B-0.000 F300
G1 X96.372 Z-125.513 B-0.000 F300
G1 X96.398 Z-125.077 B-0.000 F300
G1 X96.417 Z-124.642 B-0.000 F300
G1 X96.429 Z-124.205 B-0.000 F300
G1 C0.000 F3000
G1 X83.567 Z-123.769 B-0.000 F300
G1 X83.564 Z-123.333 B-0.000 F300
G1 X83.552 Z-122.897 B-0.000 F300
G1 X83.533 Z-122.461 B-0.000 F300
G1 X83.506 Z-122.025 B-0.000 F300
G1 X83.472 Z-121.590 B-0.000 F300
G1 X83.430 Z-121.156 B-0.000 F300
G1 X83.477 Z-120.783 B-0.056 F300
G1 X83.675 Z-120.526 B-0.209 F300
G1 X83.778 Z-120.223 B-0.315 F300
G1 X83.839 Z-119.902 B-0.401 F300
G1 X83.871 Z-119.572 B-0.477 F300
G1 X83.882 Z-119.235 B-0.545 F300
G1 X83.875 Z-118.894 B-0.607 F300
G1 X83.853 Z-118.551 B-0.666 F300
G1 X83.818 Z-118.205 B-0.720 F300
G1 X83.769 Z-117.859 B-0.772 F300
G1 X83.709 Z-117.512 B-0.822 F300
G1 X83.638 Z-117.165 B-0.870 F300
G1 X83.557 Z-116.818 B-0.916 F300
G1 X83.465 Z-116.473 B-0.960 F300
G1 X83.364 Z-116.128 B-1.003 F300
G1 X83.253 Z-115.784 B-1.044 F300
G1 X83.133 Z-115.442 B-1.085 F300
G1 X83.005 Z-115.102 B-1.125 F300
G1 X82.867 Z-114.764 B-1.163 F300
G1 X82.721 Z-114.428 B-1.201 F300
G1 X82.567 Z-114.094 B-1.238 F300
G1 X82.405 Z-113.763 B-1.274 F300
G1 X82.235 Z-113.435 B-1.310 F300
G1 X82.057 Z-113.109 B-1.345 F300
G1 X81.871 Z-112.787 B-1.380 F300
G1 X81.678 Z-112.468 B-1.414 F300
G1 X81.477 Z-112.152 B-1.447 F300
G1 X81.270 Z-111.839 B-1.480 F300
G1 X81.055 Z-111.530 B-1.513 F300
G1 X80.833 Z-111.225 B-1.545 F300
G1 X80.604 Z-110.924 B-1.576 F300
G1 X80.368 Z-110.627 B-1.608 F300
G1 X80.126 Z-110.333 B-1.639 F300
G1 X79.877 Z-110.045 B-1.669 F300
G1 X79.621 Z-109.760 B-1.700 F300
G1 X79.360 Z-109.480 B-1.730 F300
G1 X79.092 Z-109.205 B-1.760 F300
G1 X78.818 Z-108.934 B-1.789 F300
G1 X78.538 Z-108.668 B-1.818 F300
G1 X78.252 Z-108.407 B-1.847 F300
G1 X77.961 Z-108.151 B-1.876 F300
G1 X77.663 Z-107.900 B-1.905 F300
G1 X77.361 Z-107.655 B-1.933 F300
G1 X77.053 Z-107.415 B-1.961 F300
G1 X76.740 Z-107.180 B-1.989 F300
G1 X76.421 Z-106.950 B-2.017 F300
G1 X76.098 Z-106.727 B-2.044 F300
G1 X75.769 Z-106.509 B-2.072 F300
G1 X75.436 Z-106.297 B-2.099 F300
G1 X75.098 Z-106.090 B-2.126 F300
G1 X74.756 Z-105.890 B-2.153 F300
G1 X74.409 Z-105.695 B-2.180 F300
G1 X74.058 Z-105.507 B-2.206 F300
G1 X73.703 Z-105.325 B-2.233 F300
G1 X73.343 Z-105.149 B-2.259 F300
G1 X72.980 Z-104.979 B-2.285 F300
G1 X72.613 Z-104.816 B-2.312 F300
G1 X72.242 Z-104.659 B-2.338 F300
G1 X71.868 Z-104.508 B-2.364 F300
G1 X71.490 Z-104.365 B-2.389 F300
G1 X71.109 Z-104.227 B-2.415 F300
G1 X70.725 Z-104.097 B-2.441 F300
G1 X70.337 Z-103.973 B-2.466 F300
G1 X69.947 Z-103.856 B-2.492 F300
G1 X69.554 Z-103.746 B-2.517 F300
G1 X69.159 Z-103.642 B-2.543 F300
G1 X68.761 Z-103.546 B-2.568 F300
G1 X68.360 Z-103.456 B-2.593 F300
G1 X67.958 Z-103.374 B-2.618 F300
G1 X67.553 Z-103.298 B-2.643 F300
G1 X67.146 Z-103.230 B-2.668 F300
G1 X66.738 Z-103.168 B-2.693 F300
G1 X66.328 Z-103.114 B-2.718 F300
G1 X65.916 Z-103.067 B-2.743 F300
G1 X65.503 Z-103.027 B-2.768 F300
G1 X65.088 Z-102.994 B-2.793 F300
G1 X64.673 Z-102.969 B-2.818 F300
G1 X64.256 Z-102.950 B-2.842 F300
G1 X63.838 Z-102.939 B-2.867 F300
G1 X63.420 Z-102.935 B-2.892 F300
G1 X63.001 Z-102.939 B-2.916 F300
G1 X62.582 Z-102.949 B-2.941 F300
G1 X62.162 Z-102.967 B-2.966 F300
G1 X61.742 Z-102.992 B-2.990 F300
G1 X61.322 Z-103.025 B-3.015 F300
G1 X60.903 Z-103.064 B-3.039 F300
G1 X60.483 Z-103.111 B-3.064 F300
G1 X60.064 Z-103.165 B-3.088 F300
G1 X59.645 Z-103.227 B-3.113 F300
G1 X59.227 Z-103.296 B-3.138 F300
G1 X58.810 Z-103.371 B-3.162 F300
G1 X58.393 Z-103.454 B-3.187 F300
G1 X57.978 Z-103.545 B-3.211 F300
G1 X57.564 Z-103.642 B-3.236 F300
G1 X57.151 Z-103.747 B-3.260 F300
G1 X56.740 Z-103.858 B-3.285 F300
G1 X56.330 Z-103.977 B-3.310 F300
G1 X55.922 Z-104.103 B-3.334 F300
G1 X55.516 Z-104.235 B-3.359 F300
G1 X55.112 Z-104.375 B-3.384 F300
G1 X54.710 Z-104.521 B-3.409 F300
G1 X54.310 Z-104.675 B-3.433 F300
G1 X53.912 Z-104.835 B-3.458 F300
G1 X53.518 Z-105.002 B-3.483 F300
G1 X53.125 Z-105.176 B-3.508 F300
G1 X52.736 Z-105.356 B-3.533 F300
G1 X52.349 Z-105.543 B-3.558 F300
G1 X51.966 Z-105.737 B-3.583 F300
G1 X51.586 Z-105.937 B-3.608 F300
G1 X51.209 Z-106.144 B-3.634 F300
G1 X50.835 Z-106.357 B-3.659 F300
G1 X50.465 Z-106.576 B-3.684 F300
G1 X50.099 Z-106.802 B-3.710 F300
G1 X49.736 Z-107.033 B-3.735 F300
G1 X49.377 Z-107.271 B-3.761 F300
G1 X49.023 Z-107.515 B-3.786 F300
G1 X48.672 Z-107.765 B-3.812 F300
G1 X48.326 Z-108.020 B-3.838 F300
G1 X47.984 Z-108.282 B-3.864 F300
G1 X47.647 Z-108.549 B-3.890 F300
G1 X47.314 Z-108.822 B-3.916 F300
G1 X46.986 Z-109.100 B-3.942 F300
G1 X46.663 Z-109.383 B-3.969 F300
G1 X46.345 Z-109.672 B-3.995 F300
G1 X46.032 Z-109.966 B-4.022 F300
G1 X45.724 Z-110.266 B-4.049 F300
G1 X45.422 Z-110.570 B-4.076 F300
G1 X45.125 Z-110.879 B-4.103 F300
G1 X44.833 Z-111.193 B-4.130 F300
G1 X44.547 Z-111.512 B-4.157 F300
G1 X44.267 Z-111.835 B-4.185 F300
G1 X43.992 Z-112.163 B-4.213 F300
G1 X43.724 Z-112.495 B-4.241 F300
G1 X43.461 Z-112.831 B-4.269 F300
G1 X43.205 Z-113.171 B-4.297 F300
G1 X42.955 Z-113.516 B-4.326 F300
G1 X42.711 Z-113.864 B-4.355 F300
G1 X42.474 Z-114.215 B-4.384 F300
G1 X42.243 Z-114.571 B-4.413 F300
G1 X42.019 Z-114.929 B-4.442 F300
G1 X41.802 Z-115.291 B-4.472 F300
G1 X41.591 Z-115.656 B-4.502 F300
G1 X41.387 Z-116.025 B-4.533 F300
G1 X41.191 Z-116.395 B-4.563 F300
G1 X41.001 Z-116.769 B-4.594 F300
G1 X40.818 Z-117.145 B-4.626 F300
G1 X40.643 Z-117.523 B-4.657 F300
G1 X40.476 Z-117.903 B-4.690 F300
G1 X40.315 Z-118.285 B-4.722 F300
G1 X40.163 Z-118.669 B-4.755 F300
G1 X40.018 Z-119.055 B-4.789 F300
G1 X39.880 Z-119.442 B-4.823 F300
G1 X39.751 Z-119.830 B-4.857 F300
G1 X39.630 Z-120.218 B-4.892 F300
G1 X39.516 Z-120.608 B-4.928 F300
G1 X39.411 Z-120.997 B-4.964 F300
G1 X39.315 Z-121.387 B-5.001 F300
G1 X39.226 Z-121.777 B-5.039 F300
G1 X39.147 Z-122.166 B-5.078 F300
G1 X39.076 Z-122.554 B-5.118 F300
G1 X39.014 Z-122.940 B-5.158 F300
G1 X38.961 Z-123.325 B-5.200 F300
G1 X38.918 Z-123.708 B-5.243 F300
G1 X38.884 Z-124.088 B-5.288 F300
G1 X38.860 Z-124.465 B-5.334 F300
G1 X38.847 Z-124.837 B-5.381 F300
G1 X38.844 Z-125.204 B-5.431 F300
G1 X38.852 Z-125.565 B-5.484 F300
G1 X38.873 Z-125.918 B-5.539 F300
G1 X38.906 Z-126.262 B-5.597 F300
G1 X38.883 Z-126.693 B-5.600 F300
G1 X38.864 Z-127.129 B-5.600 F300
G1 X38.852 Z-127.565 B-5.600 F300
