; generated by circle_cppr_from_calibration.py
; calibration: r(b), z(b) from JSON
; axes: pull=B, rot=C, stageZ=Z
; inverse mapping per point:
;   r_target = |X_target|
;   b = inverse_r(r_target)
;   Z_stage = Z_target - z(b)
;   C = 180 when X_target<0 else 0 (r applies along ±X)
; center: X=65.000, Z=-130.000
; commanded B clamp: [-5.000, -0.300]
; calibrated r range: [-0.864, 30.264] mm
; NOTE: X axis is not commanded; sign is selected by C only.
G90
G1 C0.000 F100000
G1 Z-129.723 B-0.300 F100
G1 Z-130.243 B-0.300 F100
G1 Z-130.762 B-0.300 F100
G1 Z-131.281 B-0.300 F100
G1 Z-131.799 B-0.300 F100
G1 Z-132.317 B-0.300 F100
G1 Z-132.834 B-0.300 F100
G1 Z-133.351 B-0.300 F100
G1 Z-133.866 B-0.300 F100
G1 Z-134.379 B-0.300 F100
G1 Z-134.892 B-0.300 F100
G1 Z-135.402 B-0.300 F100
G1 Z-135.911 B-0.300 F100
G1 Z-136.419 B-0.300 F100
G1 Z-136.924 B-0.300 F100
G1 Z-137.427 B-0.300 F100
G1 Z-137.927 B-0.300 F100
G1 Z-138.425 B-0.300 F100
G1 Z-138.921 B-0.300 F100
G1 Z-139.413 B-0.300 F100
G1 Z-139.903 B-0.300 F100
G1 Z-140.390 B-0.300 F100
G1 Z-140.873 B-0.300 F100
G1 Z-141.353 B-0.300 F100
G1 Z-141.829 B-0.300 F100
G1 Z-142.302 B-0.300 F100
G1 Z-142.771 B-0.300 F100
G1 Z-143.236 B-0.300 F100
G1 Z-143.696 B-0.300 F100
G1 Z-144.153 B-0.300 F100
G1 Z-144.605 B-0.300 F100
G1 Z-145.053 B-0.300 F100
G1 Z-145.496 B-0.300 F100
G1 Z-145.934 B-0.300 F100
G1 Z-146.367 B-0.300 F100
G1 Z-146.795 B-0.300 F100
G1 Z-147.218 B-0.300 F100
G1 Z-147.635 B-0.300 F100
G1 Z-148.048 B-0.300 F100
G1 Z-148.454 B-0.300 F100
G1 Z-148.855 B-0.300 F100
G1 Z-149.250 B-0.300 F100
G1 Z-149.639 B-0.300 F100
G1 Z-150.022 B-0.300 F100
G1 Z-150.399 B-0.300 F100
G1 Z-150.769 B-0.300 F100
G1 Z-151.133 B-0.300 F100
G1 Z-151.491 B-0.300 F100
G1 Z-151.842 B-0.300 F100
G1 Z-152.186 B-0.300 F100
G1 Z-152.524 B-0.300 F100
G1 Z-152.854 B-0.300 F100
G1 Z-153.177 B-0.300 F100
G1 Z-153.494 B-0.300 F100
G1 Z-153.803 B-0.300 F100
G1 Z-154.104 B-0.300 F100
G1 Z-154.398 B-0.300 F100
G1 Z-154.685 B-0.300 F100
G1 Z-154.964 B-0.300 F100
G1 Z-155.236 B-0.300 F100
G1 Z-155.499 B-0.300 F100
G1 Z-155.755 B-0.300 F100
G1 Z-156.003 B-0.300 F100
G1 Z-156.243 B-0.300 F100
G1 Z-156.475 B-0.300 F100
G1 Z-156.698 B-0.300 F100
G1 Z-156.914 B-0.300 F100
G1 Z-157.121 B-0.300 F100
G1 Z-157.320 B-0.300 F100
G1 Z-157.510 B-0.300 F100
G1 Z-157.692 B-0.300 F100
G1 Z-157.865 B-0.300 F100
G1 Z-158.030 B-0.300 F100
G1 Z-158.186 B-0.300 F100
G1 Z-158.334 B-0.300 F100
G1 Z-158.473 B-0.300 F100
G1 Z-158.603 B-0.300 F100
G1 Z-158.724 B-0.300 F100
G1 Z-158.837 B-0.300 F100
G1 Z-158.940 B-0.300 F100
G1 Z-159.035 B-0.300 F100
G1 Z-159.121 B-0.300 F100
G1 Z-159.197 B-0.300 F100
G1 Z-159.265 B-0.300 F100
G1 Z-159.324 B-0.300 F100
G1 Z-159.374 B-0.300 F100
G1 Z-159.414 B-0.300 F100
G1 Z-159.446 B-0.300 F100
G1 Z-159.469 B-0.300 F100
G1 Z-159.482 B-0.300 F100
G1 Z-159.487 B-0.300 F100
G1 Z-159.482 B-0.300 F100
G1 Z-159.469 B-0.300 F100
G1 Z-159.446 B-0.300 F100
G1 Z-159.414 B-0.300 F100
G1 Z-159.374 B-0.300 F100
G1 Z-159.324 B-0.300 F100
G1 Z-159.265 B-0.300 F100
G1 Z-159.197 B-0.300 F100
G1 Z-159.121 B-0.300 F100
G1 Z-159.035 B-0.300 F100
G1 Z-158.940 B-0.300 F100
G1 Z-158.837 B-0.300 F100
G1 Z-158.724 B-0.300 F100
G1 Z-158.603 B-0.300 F100
G1 Z-158.473 B-0.300 F100
G1 Z-158.334 B-0.300 F100
G1 Z-158.186 B-0.300 F100
G1 Z-158.030 B-0.300 F100
G1 Z-157.865 B-0.300 F100
G1 Z-157.692 B-0.300 F100
G1 Z-157.510 B-0.300 F100
G1 Z-157.320 B-0.300 F100
G1 Z-157.121 B-0.300 F100
G1 Z-156.914 B-0.300 F100
G1 Z-156.698 B-0.300 F100
G1 Z-156.475 B-0.300 F100
G1 Z-156.243 B-0.300 F100
G1 Z-156.003 B-0.300 F100
G1 Z-155.755 B-0.300 F100
G1 Z-155.499 B-0.300 F100
G1 Z-155.236 B-0.300 F100
G1 Z-154.964 B-0.300 F100
G1 Z-154.685 B-0.300 F100
G1 Z-154.398 B-0.300 F100
G1 Z-154.104 B-0.300 F100
G1 Z-153.803 B-0.300 F100
G1 Z-153.494 B-0.300 F100
G1 Z-153.177 B-0.300 F100
G1 Z-152.854 B-0.300 F100
G1 Z-152.524 B-0.300 F100
G1 Z-152.186 B-0.300 F100
G1 Z-151.842 B-0.300 F100
G1 Z-151.491 B-0.300 F100
G1 Z-151.133 B-0.300 F100
G1 Z-150.769 B-0.300 F100
G1 Z-150.399 B-0.300 F100
G1 Z-150.022 B-0.300 F100
G1 Z-149.639 B-0.300 F100
G1 Z-149.250 B-0.300 F100
G1 Z-148.855 B-0.300 F100
G1 Z-148.454 B-0.300 F100
G1 Z-148.048 B-0.300 F100
G1 Z-147.635 B-0.300 F100
G1 Z-147.218 B-0.300 F100
G1 Z-146.795 B-0.300 F100
G1 Z-146.367 B-0.300 F100
G1 Z-145.934 B-0.300 F100
G1 Z-145.496 B-0.300 F100
G1 Z-145.053 B-0.300 F100
G1 Z-144.605 B-0.300 F100
G1 Z-144.153 B-0.300 F100
G1 Z-143.696 B-0.300 F100
G1 Z-143.236 B-0.300 F100
G1 Z-142.771 B-0.300 F100
G1 Z-142.302 B-0.300 F100
G1 Z-141.829 B-0.300 F100
G1 Z-141.353 B-0.300 F100
G1 Z-140.873 B-0.300 F100
G1 Z-140.390 B-0.300 F100
G1 Z-139.903 B-0.300 F100
G1 Z-139.413 B-0.300 F100
G1 Z-138.921 B-0.300 F100
G1 Z-138.425 B-0.300 F100
G1 Z-137.927 B-0.300 F100
G1 Z-137.427 B-0.300 F100
G1 Z-136.924 B-0.300 F100
G1 Z-136.419 B-0.300 F100
G1 Z-135.911 B-0.300 F100
G1 Z-135.402 B-0.300 F100
G1 Z-134.892 B-0.300 F100
G1 Z-134.379 B-0.300 F100
G1 Z-133.866 B-0.300 F100
G1 Z-133.351 B-0.300 F100
G1 Z-132.834 B-0.300 F100
G1 Z-132.317 B-0.300 F100
G1 Z-131.799 B-0.300 F100
G1 Z-131.281 B-0.300 F100
G1 Z-130.762 B-0.300 F100
G1 Z-130.243 B-0.300 F100
G1 Z-129.723 B-0.300 F100
G1 Z-129.204 B-0.300 F100
G1 Z-128.684 B-0.300 F100
G1 Z-128.166 B-0.300 F100
G1 Z-127.647 B-0.300 F100
G1 Z-127.129 B-0.300 F100
G1 Z-126.612 B-0.300 F100
G1 Z-126.096 B-0.300 F100
G1 Z-125.581 B-0.300 F100
G1 Z-125.067 B-0.300 F100
G1 Z-124.555 B-0.300 F100
G1 Z-124.044 B-0.300 F100
G1 Z-123.535 B-0.300 F100
G1 Z-123.028 B-0.300 F100
G1 Z-122.523 B-0.300 F100
G1 Z-122.020 B-0.300 F100
G1 Z-121.519 B-0.300 F100
G1 Z-121.021 B-0.300 F100
G1 Z-120.526 B-0.300 F100
G1 Z-120.033 B-0.300 F100
G1 Z-119.543 B-0.300 F100
G1 Z-119.057 B-0.300 F100
G1 Z-118.574 B-0.300 F100
G1 Z-118.094 B-0.300 F100
G1 Z-117.617 B-0.300 F100
G1 Z-117.145 B-0.300 F100
G1 Z-116.676 B-0.300 F100
G1 Z-116.211 B-0.300 F100
G1 Z-115.750 B-0.300 F100
G1 Z-115.293 B-0.300 F100
G1 Z-114.841 B-0.300 F100
G1 Z-114.394 B-0.300 F100
G1 Z-113.951 B-0.300 F100
G1 Z-113.513 B-0.300 F100
G1 Z-113.080 B-0.300 F100
G1 Z-112.651 B-0.300 F100
G1 Z-112.229 B-0.300 F100
G1 Z-111.811 B-0.300 F100
G1 Z-111.399 B-0.300 F100
G1 Z-110.992 B-0.300 F100
G1 Z-110.591 B-0.300 F100
G1 Z-110.196 B-0.300 F100
G1 Z-109.807 B-0.300 F100
G1 Z-109.424 B-0.300 F100
G1 Z-109.048 B-0.300 F100
G1 Z-108.677 B-0.300 F100
G1 Z-108.313 B-0.300 F100
G1 Z-107.955 B-0.300 F100
G1 Z-107.604 B-0.300 F100
G1 Z-107.260 B-0.300 F100
G1 Z-106.923 B-0.300 F100
G1 Z-106.592 B-0.300 F100
G1 Z-106.269 B-0.300 F100
G1 Z-105.953 B-0.300 F100
G1 Z-105.644 B-0.300 F100
G1 Z-105.342 B-0.300 F100
G1 Z-105.048 B-0.300 F100
G1 Z-104.761 B-0.300 F100
G1 Z-104.482 B-0.300 F100
G1 Z-104.211 B-0.300 F100
G1 Z-103.947 B-0.300 F100
G1 Z-103.691 B-0.300 F100
G1 Z-103.443 B-0.300 F100
G1 Z-103.204 B-0.300 F100
G1 Z-102.972 B-0.300 F100
G1 Z-102.748 B-0.300 F100
G1 Z-102.533 B-0.300 F100
G1 Z-102.326 B-0.300 F100
G1 Z-102.127 B-0.300 F100
G1 Z-101.936 B-0.300 F100
G1 Z-101.754 B-0.300 F100
G1 Z-101.581 B-0.300 F100
G1 Z-101.416 B-0.300 F100
G1 Z-101.260 B-0.300 F100
G1 Z-101.112 B-0.300 F100
G1 Z-100.974 B-0.300 F100
G1 Z-100.844 B-0.300 F100
G1 Z-100.722 B-0.300 F100
G1 Z-100.610 B-0.300 F100
G1 Z-100.506 B-0.300 F100
G1 Z-100.412 B-0.300 F100
G1 Z-100.326 B-0.300 F100
G1 Z-100.249 B-0.300 F100
G1 Z-100.181 B-0.300 F100
G1 Z-100.123 B-0.300 F100
G1 Z-100.073 B-0.300 F100
G1 Z-100.032 B-0.300 F100
G1 Z-100.000 B-0.300 F100
G1 Z-99.978 B-0.300 F100
G1 Z-99.964 B-0.300 F100
G1 Z-99.959 B-0.300 F100
G1 Z-99.964 B-0.300 F100
G1 Z-99.978 B-0.300 F100
G1 Z-100.000 B-0.300 F100
G1 Z-100.032 B-0.300 F100
G1 Z-100.073 B-0.300 F100
G1 Z-100.123 B-0.300 F100
G1 Z-100.181 B-0.300 F100
G1 Z-100.249 B-0.300 F100
G1 Z-100.326 B-0.300 F100
G1 Z-100.412 B-0.300 F100
G1 Z-100.506 B-0.300 F100
G1 Z-100.610 B-0.300 F100
G1 Z-100.722 B-0.300 F100
G1 Z-100.844 B-0.300 F100
G1 Z-100.974 B-0.300 F100
G1 Z-101.112 B-0.300 F100
G1 Z-101.260 B-0.300 F100
G1 Z-101.416 B-0.300 F100
G1 Z-101.581 B-0.300 F100
G1 Z-101.754 B-0.300 F100
G1 Z-101.936 B-0.300 F100
G1 Z-102.127 B-0.300 F100
G1 Z-102.326 B-0.300 F100
G1 Z-102.533 B-0.300 F100
G1 Z-102.748 B-0.300 F100
G1 Z-102.972 B-0.300 F100
G1 Z-103.204 B-0.300 F100
G1 Z-103.443 B-0.300 F100
G1 Z-103.691 B-0.300 F100
G1 Z-103.947 B-0.300 F100
G1 Z-104.211 B-0.300 F100
G1 Z-104.482 B-0.300 F100
G1 Z-104.761 B-0.300 F100
G1 Z-105.048 B-0.300 F100
G1 Z-105.342 B-0.300 F100
G1 Z-105.644 B-0.300 F100
G1 Z-105.953 B-0.300 F100
G1 Z-106.269 B-0.300 F100
G1 Z-106.592 B-0.300 F100
G1 Z-106.923 B-0.300 F100
G1 Z-107.260 B-0.300 F100
G1 Z-107.604 B-0.300 F100
G1 Z-107.955 B-0.300 F100
G1 Z-108.313 B-0.300 F100
G1 Z-108.677 B-0.300 F100
G1 Z-109.048 B-0.300 F100
G1 Z-109.424 B-0.300 F100
G1 Z-109.807 B-0.300 F100
G1 Z-110.196 B-0.300 F100
G1 Z-110.591 B-0.300 F100
G1 Z-110.992 B-0.300 F100
G1 Z-111.399 B-0.300 F100
G1 Z-111.811 B-0.300 F100
G1 Z-112.229 B-0.300 F100
G1 Z-112.651 B-0.300 F100
G1 Z-113.080 B-0.300 F100
G1 Z-113.513 B-0.300 F100
G1 Z-113.951 B-0.300 F100
G1 Z-114.394 B-0.300 F100
G1 Z-114.841 B-0.300 F100
G1 Z-115.293 B-0.300 F100
G1 Z-115.750 B-0.300 F100
G1 Z-116.211 B-0.300 F100
G1 Z-116.676 B-0.300 F100
G1 Z-117.145 B-0.300 F100
G1 Z-117.617 B-0.300 F100
G1 Z-118.094 B-0.300 F100
G1 Z-118.574 B-0.300 F100
G1 Z-119.057 B-0.300 F100
G1 Z-119.543 B-0.300 F100
G1 Z-120.033 B-0.300 F100
G1 Z-120.526 B-0.300 F100
G1 Z-121.021 B-0.300 F100
G1 Z-121.519 B-0.300 F100
G1 Z-122.020 B-0.300 F100
G1 Z-122.523 B-0.300 F100
G1 Z-123.028 B-0.300 F100
G1 Z-123.535 B-0.300 F100
G1 Z-124.044 B-0.300 F100
G1 Z-124.555 B-0.300 F100
G1 Z-125.067 B-0.300 F100
G1 Z-125.581 B-0.300 F100
G1 Z-126.096 B-0.300 F100
G1 Z-126.612 B-0.300 F100
G1 Z-127.129 B-0.300 F100
G1 Z-127.647 B-0.300 F100
G1 Z-128.166 B-0.300 F100
G1 Z-128.684 B-0.300 F100
G1 Z-129.204 B-0.300 F100
