; generated by circle_xzb_from_calibration.py
; axes: X→X, Z→Z, pull→B, rot→C
; model:
;   X_tip = X_stage + sgn*r(B)   (sgn=+1 at C=0, sgn=-1 at C=180)
;   Z_tip = Z_stage + z(B)
;   tip_angle_deg = tip_angle(B)
; sequence: lower half C=180 with uncurl 180->0, upper half C=0 with curl 0->180.
; calibrated r(B) range (sampled): [2.431, 19.550] mm
; calibrated tip-angle range: [16.555, 199.968] deg
; info: 33/361 points requested outside calibrated tip-angle range and were clamped.
; B clamp: [-5.400, 0.000]
G90
G1 C180.000 F3000
G1 X53.685 Z-145.009 B-4.715 F300
G1 X53.934 Z-145.330 B-4.680 F300
G1 X54.183 Z-145.645 B-4.646 F300
G1 X54.431 Z-145.953 B-4.612 F300
G1 X54.679 Z-146.254 B-4.578 F300
G1 X54.926 Z-146.549 B-4.545 F300
G1 X55.174 Z-146.838 B-4.512 F300
G1 X55.423 Z-147.121 B-4.479 F300
G1 X55.672 Z-147.398 B-4.447 F300
G1 X55.923 Z-147.669 B-4.415 F300
G1 X56.175 Z-147.935 B-4.384 F300
G1 X56.428 Z-148.195 B-4.353 F300
G1 X56.683 Z-148.450 B-4.322 F300
G1 X56.940 Z-148.699 B-4.291 F300
G1 X57.199 Z-148.942 B-4.261 F300
G1 X57.460 Z-149.180 B-4.231 F300
G1 X57.723 Z-149.413 B-4.201 F300
G1 X57.989 Z-149.640 B-4.171 F300
G1 X58.257 Z-149.862 B-4.142 F300
G1 X58.528 Z-150.079 B-4.112 F300
G1 X58.801 Z-150.290 B-4.083 F300
G1 X59.077 Z-150.496 B-4.055 F300
G1 X59.356 Z-150.697 B-4.026 F300
G1 X59.638 Z-150.892 B-3.998 F300
G1 X59.923 Z-151.081 B-3.969 F300
G1 X60.210 Z-151.265 B-3.941 F300
G1 X60.501 Z-151.444 B-3.913 F300
G1 X60.795 Z-151.617 B-3.886 F300
G1 X61.091 Z-151.785 B-3.858 F300
G1 X61.391 Z-151.946 B-3.830 F300
G1 X61.693 Z-152.103 B-3.803 F300
G1 X61.999 Z-152.253 B-3.776 F300
G1 X62.308 Z-152.398 B-3.749 F300
G1 X62.620 Z-152.537 B-3.722 F300
G1 X62.935 Z-152.670 B-3.695 F300
G1 X63.253 Z-152.797 B-3.668 F300
G1 X63.573 Z-152.918 B-3.642 F300
G1 X63.897 Z-153.033 B-3.615 F300
G1 X64.224 Z-153.143 B-3.589 F300
G1 X64.554 Z-153.246 B-3.562 F300
G1 X64.886 Z-153.343 B-3.536 F300
G1 X65.222 Z-153.433 B-3.510 F300
G1 X65.560 Z-153.518 B-3.484 F300
G1 X65.901 Z-153.596 B-3.458 F300
G1 X66.244 Z-153.668 B-3.432 F300
G1 X66.590 Z-153.733 B-3.407 F300
G1 X66.939 Z-153.792 B-3.381 F300
G1 X67.290 Z-153.845 B-3.355 F300
G1 X67.644 Z-153.890 B-3.330 F300
G1 X68.000 Z-153.930 B-3.304 F300
G1 X68.358 Z-153.962 B-3.279 F300
G1 X68.719 Z-153.988 B-3.253 F300
G1 X69.082 Z-154.007 B-3.228 F300
G1 X69.446 Z-154.020 B-3.203 F300
G1 X69.813 Z-154.025 B-3.178 F300
G1 X70.182 Z-154.024 B-3.152 F300
G1 X70.552 Z-154.016 B-3.127 F300
G1 X70.924 Z-154.000 B-3.102 F300
G1 X71.298 Z-153.978 B-3.077 F300
G1 X71.673 Z-153.949 B-3.052 F300
G1 X72.050 Z-153.912 B-3.027 F300
G1 X72.428 Z-153.869 B-3.002 F300
G1 X72.807 Z-153.818 B-2.978 F300
G1 X73.187 Z-153.760 B-2.953 F300
G1 X73.569 Z-153.695 B-2.928 F300
G1 X73.951 Z-153.623 B-2.903 F300
G1 X74.334 Z-153.543 B-2.878 F300
G1 X74.718 Z-153.456 B-2.854 F300
G1 X75.102 Z-153.362 B-2.829 F300
G1 X75.487 Z-153.261 B-2.804 F300
G1 X75.872 Z-153.152 B-2.780 F300
G1 X76.258 Z-153.035 B-2.755 F300
G1 X76.643 Z-152.912 B-2.730 F300
G1 X77.029 Z-152.781 B-2.706 F300
G1 X77.414 Z-152.642 B-2.681 F300
G1 X77.799 Z-152.496 B-2.656 F300
G1 X78.184 Z-152.343 B-2.632 F300
G1 X78.568 Z-152.182 B-2.607 F300
G1 X78.952 Z-152.014 B-2.582 F300
G1 X79.335 Z-151.838 B-2.558 F300
G1 X79.717 Z-151.655 B-2.533 F300
G1 X80.098 Z-151.465 B-2.509 F300
G1 X80.477 Z-151.267 B-2.484 F300
G1 X80.856 Z-151.061 B-2.459 F300
G1 X81.233 Z-150.848 B-2.435 F300
G1 X81.608 Z-150.628 B-2.410 F300
G1 X81.982 Z-150.401 B-2.385 F300
G1 X82.354 Z-150.166 B-2.360 F300
G1 X82.723 Z-149.923 B-2.336 F300
G1 X83.091 Z-149.674 B-2.311 F300
G1 X83.457 Z-149.417 B-2.286 F300
G1 X83.820 Z-149.153 B-2.261 F300
G1 X84.180 Z-148.881 B-2.236 F300
G1 X84.538 Z-148.603 B-2.212 F300
G1 X84.893 Z-148.317 B-2.187 F300
G1 X85.245 Z-148.024 B-2.162 F300
G1 X85.594 Z-147.724 B-2.137 F300
G1 X85.939 Z-147.418 B-2.112 F300
G1 X86.281 Z-147.104 B-2.087 F300
G1 X86.620 Z-146.783 B-2.061 F300
G1 X86.954 Z-146.455 B-2.036 F300
G1 X87.285 Z-146.120 B-2.011 F300
G1 X87.612 Z-145.779 B-1.986 F300
G1 X87.935 Z-145.431 B-1.960 F300
G1 X88.253 Z-145.077 B-1.935 F300
G1 X88.567 Z-144.715 B-1.910 F300
G1 X88.876 Z-144.348 B-1.884 F300
G1 X89.180 Z-143.974 B-1.859 F300
G1 X89.480 Z-143.593 B-1.833 F300
G1 X89.774 Z-143.206 B-1.807 F300
G1 X90.063 Z-142.814 B-1.781 F300
G1 X90.347 Z-142.415 B-1.755 F300
G1 X90.625 Z-142.010 B-1.730 F300
G1 X90.897 Z-141.599 B-1.703 F300
G1 X91.163 Z-141.182 B-1.677 F300
G1 X91.424 Z-140.760 B-1.651 F300
G1 X91.678 Z-140.332 B-1.625 F300
G1 X91.925 Z-139.899 B-1.598 F300
G1 X92.166 Z-139.460 B-1.572 F300
G1 X92.401 Z-139.016 B-1.545 F300
G1 X92.628 Z-138.567 B-1.518 F300
G1 X92.849 Z-138.112 B-1.492 F300
G1 X93.062 Z-137.653 B-1.465 F300
G1 X93.268 Z-137.189 B-1.437 F300
G1 X93.466 Z-136.721 B-1.410 F300
G1 X93.656 Z-136.248 B-1.383 F300
G1 X93.839 Z-135.771 B-1.355 F300
G1 X94.013 Z-135.290 B-1.328 F300
G1 X94.180 Z-134.804 B-1.300 F300
G1 X94.337 Z-134.315 B-1.272 F300
G1 X94.486 Z-133.822 B-1.244 F300
G1 X94.626 Z-133.326 B-1.215 F300
G1 X94.758 Z-132.826 B-1.187 F300
G1 X94.879 Z-132.323 B-1.158 F300
G1 X94.992 Z-131.817 B-1.129 F300
G1 X95.095 Z-131.309 B-1.100 F300
G1 X95.188 Z-130.797 B-1.071 F300
G1 X95.271 Z-130.284 B-1.041 F300
G1 X95.343 Z-129.768 B-1.012 F300
G1 X95.406 Z-129.251 B-0.982 F300
G1 X95.457 Z-128.732 B-0.951 F300
G1 X95.497 Z-128.212 B-0.921 F300
G1 X95.526 Z-127.690 B-0.890 F300
G1 X95.544 Z-127.168 B-0.859 F300
G1 X95.550 Z-126.645 B-0.828 F300
G1 X95.544 Z-126.121 B-0.796 F300
G1 X95.525 Z-125.598 B-0.764 F300
G1 X95.494 Z-125.075 B-0.732 F300
G1 X95.450 Z-124.553 B-0.700 F300
G1 X95.393 Z-124.032 B-0.666 F300
G1 X95.322 Z-123.513 B-0.633 F300
G1 X95.237 Z-122.995 B-0.599 F300
G1 X95.137 Z-122.480 B-0.565 F300
G1 X95.023 Z-121.967 B-0.530 F300
G1 X94.893 Z-121.458 B-0.495 F300
G1 X94.747 Z-120.953 B-0.459 F300
G1 X94.585 Z-120.452 B-0.423 F300
G1 X94.405 Z-119.956 B-0.386 F300
G1 X94.208 Z-119.466 B-0.349 F300
G1 X93.993 Z-118.982 B-0.310 F300
G1 X93.759 Z-118.506 B-0.271 F300
G1 X93.504 Z-118.038 B-0.232 F300
G1 X93.228 Z-117.579 B-0.191 F300
G1 X92.930 Z-117.130 B-0.150 F300
G1 X92.858 Z-116.702 B-0.131 F300
G1 X92.974 Z-116.282 B-0.131 F300
G1 X93.084 Z-115.859 B-0.131 F300
G1 X93.185 Z-115.435 B-0.131 F300
G1 X93.280 Z-115.009 B-0.131 F300
G1 X93.367 Z-114.581 B-0.131 F300
G1 X93.446 Z-114.152 B-0.131 F300
G1 X93.518 Z-113.722 B-0.131 F300
G1 X93.583 Z-113.290 B-0.131 F300
G1 X93.640 Z-112.858 B-0.131 F300
G1 X93.689 Z-112.424 B-0.131 F300
G1 X93.731 Z-111.990 B-0.131 F300
G1 X93.765 Z-111.555 B-0.131 F300
G1 X93.792 Z-111.119 B-0.131 F300
G1 X93.811 Z-110.684 B-0.131 F300
G1 X93.822 Z-110.247 B-0.131 F300
G1 X86.170 Z-110.247 B-0.131 C0.000 F300
G1 X86.174 Z-109.811 B-0.131 F300
G1 X86.170 Z-109.375 B-0.131 F300
G1 X86.159 Z-108.939 B-0.131 F300
G1 X86.140 Z-108.503 B-0.131 F300
G1 X86.113 Z-108.067 B-0.131 F300
G1 X86.079 Z-107.632 B-0.131 F300
G1 X86.037 Z-107.198 B-0.131 F300
G1 X85.987 Z-106.764 B-0.131 F300
G1 X85.931 Z-106.332 B-0.131 F300
G1 X85.866 Z-105.900 B-0.131 F300
G1 X85.794 Z-105.470 B-0.131 F300
G1 X85.714 Z-105.041 B-0.131 F300
G1 X85.627 Z-104.613 B-0.131 F300
G1 X85.533 Z-104.187 B-0.131 F300
G1 X85.431 Z-103.763 B-0.131 F300
G1 X85.322 Z-103.341 B-0.131 F300
G1 X85.205 Z-102.920 B-0.131 F300
G1 X84.885 Z-102.512 B-0.150 F300
G1 X84.325 Z-102.128 B-0.191 F300
G1 X83.772 Z-101.759 B-0.232 F300
G1 X83.226 Z-101.405 B-0.271 F300
G1 X82.686 Z-101.064 B-0.310 F300
G1 X82.151 Z-100.735 B-0.349 F300
G1 X81.620 Z-100.419 B-0.386 F300
G1 X81.093 Z-100.115 B-0.423 F300
G1 X80.569 Z-99.822 B-0.459 F300
G1 X80.047 Z-99.539 B-0.495 F300
G1 X79.528 Z-99.268 B-0.530 F300
G1 X79.010 Z-99.006 B-0.565 F300
G1 X78.494 Z-98.755 B-0.599 F300
G1 X77.980 Z-98.513 B-0.633 F300
G1 X77.466 Z-98.280 B-0.666 F300
G1 X76.952 Z-98.057 B-0.700 F300
G1 X76.439 Z-97.843 B-0.732 F300
G1 X75.926 Z-97.638 B-0.764 F300
G1 X75.414 Z-97.442 B-0.796 F300
G1 X74.901 Z-97.255 B-0.828 F300
G1 X74.388 Z-97.077 B-0.859 F300
G1 X73.874 Z-96.907 B-0.890 F300
G1 X73.360 Z-96.745 B-0.921 F300
G1 X72.845 Z-96.593 B-0.951 F300
G1 X72.330 Z-96.448 B-0.982 F300
G1 X71.814 Z-96.312 B-1.012 F300
G1 X71.297 Z-96.184 B-1.041 F300
G1 X70.779 Z-96.065 B-1.071 F300
G1 X70.261 Z-95.953 B-1.100 F300
G1 X69.741 Z-95.850 B-1.129 F300
G1 X69.220 Z-95.755 B-1.158 F300
G1 X68.699 Z-95.669 B-1.187 F300
G1 X68.177 Z-95.590 B-1.215 F300
G1 X67.653 Z-95.520 B-1.244 F300
G1 X67.129 Z-95.458 B-1.272 F300
G1 X66.604 Z-95.404 B-1.300 F300
G1 X66.077 Z-95.358 B-1.328 F300
G1 X65.550 Z-95.320 B-1.355 F300
G1 X65.022 Z-95.291 B-1.383 F300
G1 X64.494 Z-95.269 B-1.410 F300
G1 X63.964 Z-95.256 B-1.437 F300
G1 X63.434 Z-95.251 B-1.465 F300
G1 X62.903 Z-95.254 B-1.492 F300
G1 X62.372 Z-95.265 B-1.518 F300
G1 X61.840 Z-95.285 B-1.545 F300
G1 X61.307 Z-95.312 B-1.572 F300
G1 X60.774 Z-95.348 B-1.598 F300
G1 X60.241 Z-95.392 B-1.625 F300
G1 X59.707 Z-95.444 B-1.651 F300
G1 X59.174 Z-95.505 B-1.677 F300
G1 X58.640 Z-95.574 B-1.703 F300
G1 X58.106 Z-95.650 B-1.730 F300
G1 X57.572 Z-95.736 B-1.755 F300
G1 X57.038 Z-95.829 B-1.781 F300
G1 X56.504 Z-95.931 B-1.807 F300
G1 X55.971 Z-96.040 B-1.833 F300
G1 X55.438 Z-96.158 B-1.859 F300
G1 X54.906 Z-96.285 B-1.884 F300
G1 X54.374 Z-96.419 B-1.910 F300
G1 X53.843 Z-96.562 B-1.935 F300
G1 X53.313 Z-96.713 B-1.960 F300
G1 X52.783 Z-96.872 B-1.986 F300
G1 X52.255 Z-97.039 B-2.011 F300
G1 X51.728 Z-97.215 B-2.036 F300
G1 X51.202 Z-97.398 B-2.061 F300
G1 X50.678 Z-97.590 B-2.087 F300
G1 X50.154 Z-97.790 B-2.112 F300
G1 X49.633 Z-97.998 B-2.137 F300
G1 X49.113 Z-98.215 B-2.162 F300
G1 X48.595 Z-98.439 B-2.187 F300
G1 X48.079 Z-98.671 B-2.212 F300
G1 X47.565 Z-98.912 B-2.236 F300
G1 X47.053 Z-99.160 B-2.261 F300
G1 X46.543 Z-99.417 B-2.286 F300
G1 X46.036 Z-99.681 B-2.311 F300
G1 X45.532 Z-99.954 B-2.336 F300
G1 X45.030 Z-100.234 B-2.360 F300
G1 X44.530 Z-100.522 B-2.385 F300
G1 X44.034 Z-100.818 B-2.410 F300
G1 X43.541 Z-101.122 B-2.435 F300
G1 X43.051 Z-101.434 B-2.459 F300
G1 X42.564 Z-101.753 B-2.484 F300
G1 X42.081 Z-102.080 B-2.509 F300
G1 X41.601 Z-102.415 B-2.533 F300
G1 X41.125 Z-102.757 B-2.558 F300
G1 X40.652 Z-103.107 B-2.582 F300
G1 X40.184 Z-103.464 B-2.607 F300
G1 X39.720 Z-103.828 B-2.632 F300
G1 X39.260 Z-104.200 B-2.656 F300
G1 X38.804 Z-104.579 B-2.681 F300
G1 X38.353 Z-104.965 B-2.706 F300
G1 X37.906 Z-105.359 B-2.730 F300
G1 X37.464 Z-105.759 B-2.755 F300
G1 X37.027 Z-106.167 B-2.780 F300
G1 X36.594 Z-106.582 B-2.804 F300
G1 X36.167 Z-107.003 B-2.829 F300
G1 X35.745 Z-107.431 B-2.854 F300
G1 X35.329 Z-107.866 B-2.878 F300
G1 X34.918 Z-108.307 B-2.903 F300
G1 X34.513 Z-108.755 B-2.928 F300
G1 X34.113 Z-109.210 B-2.953 F300
G1 X33.719 Z-109.671 B-2.978 F300
G1 X33.332 Z-110.138 B-3.002 F300
G1 X32.950 Z-110.611 B-3.027 F300
G1 X32.575 Z-111.090 B-3.052 F300
G1 X32.206 Z-111.576 B-3.077 F300
G1 X31.844 Z-112.067 B-3.102 F300
G1 X31.488 Z-112.564 B-3.127 F300
G1 X31.140 Z-113.066 B-3.152 F300
G1 X30.798 Z-113.574 B-3.178 F300
G1 X30.463 Z-114.088 B-3.203 F300
G1 X30.135 Z-114.607 B-3.228 F300
G1 X29.815 Z-115.131 B-3.253 F300
G1 X29.502 Z-115.660 B-3.279 F300
G1 X29.197 Z-116.194 B-3.304 F300
G1 X28.899 Z-116.733 B-3.330 F300
G1 X28.610 Z-117.277 B-3.355 F300
G1 X28.328 Z-117.825 B-3.381 F300
G1 X28.054 Z-118.378 B-3.407 F300
G1 X27.789 Z-118.935 B-3.432 F300
G1 X27.532 Z-119.496 B-3.458 F300
G1 X27.283 Z-120.061 B-3.484 F300
G1 X27.043 Z-120.630 B-3.510 F300
G1 X26.811 Z-121.203 B-3.536 F300
G1 X26.589 Z-121.780 B-3.562 F300
G1 X26.375 Z-122.359 B-3.589 F300
G1 X26.171 Z-122.943 B-3.615 F300
G1 X25.976 Z-123.529 B-3.642 F300
G1 X25.790 Z-124.118 B-3.668 F300
G1 X25.613 Z-124.710 B-3.695 F300
G1 X25.447 Z-125.305 B-3.722 F300
G1 X25.290 Z-125.902 B-3.749 F300
G1 X25.142 Z-126.501 B-3.776 F300
G1 X25.005 Z-127.103 B-3.803 F300
G1 X24.878 Z-127.706 B-3.830 F300
G1 X24.761 Z-128.311 B-3.858 F300
G1 X24.655 Z-128.918 B-3.886 F300
G1 X24.559 Z-129.526 B-3.913 F300
G1 X24.474 Z-130.135 B-3.941 F300
G1 X24.400 Z-130.745 B-3.969 F300
G1 X24.337 Z-131.355 B-3.998 F300
G1 X24.285 Z-131.966 B-4.026 F300
G1 X24.244 Z-132.578 B-4.055 F300
G1 X24.214 Z-133.189 B-4.083 F300
G1 X24.196 Z-133.801 B-4.112 F300
G1 X24.190 Z-134.412 B-4.142 F300
G1 X24.196 Z-135.022 B-4.171 F300
G1 X24.214 Z-135.631 B-4.201 F300
G1 X24.244 Z-136.239 B-4.231 F300
G1 X24.286 Z-136.846 B-4.261 F300
G1 X24.342 Z-137.451 B-4.291 F300
G1 X24.410 Z-138.054 B-4.322 F300
G1 X24.491 Z-138.655 B-4.353 F300
G1 X24.585 Z-139.253 B-4.384 F300
G1 X24.693 Z-139.848 B-4.415 F300
G1 X24.814 Z-140.439 B-4.447 F300
G1 X24.950 Z-141.027 B-4.479 F300
G1 X25.100 Z-141.612 B-4.512 F300
G1 X25.264 Z-142.191 B-4.545 F300
G1 X25.443 Z-142.766 B-4.578 F300
G1 X25.637 Z-143.336 B-4.612 F300
G1 X25.847 Z-143.900 B-4.646 F300
G1 X26.073 Z-144.458 B-4.680 F300
G1 X53.934 Z-144.458 B-4.680 C180.000 F300
G1 X53.685 Z-145.009 B-4.715 F300
