; generated by tetrahedral_truss_tip_priority_tangent_soft.py
; strategy: exact tip position (hard) + tangent/nozzle angle alignment (soft)
; user tip-angle convention: angle measured FROM VERTICAL (horizontal line ~90 deg)
; head-front preference: choose edge direction so head/stage leads deposition point when possible
; build order heuristic: bottom-center-first, bottom-up, center-out
; geometry: double tetrahedron (mirrored along base plane)
; PHYSICAL tip kinematics uses local [r(B), y_off(B)] rotated by C; attack azimuth remap is tangency-only
; model assumptions:
;   physical tip_offset(B,C): [x,y]=Rot(C)@[r(B), y_off(B)], z=z(B)
;   nozzle attack dir(B,C) = [sin(a(B)) cos(theta_attack), sin(a(B)) sin(theta_attack), cos(a(B))]
;   theta_attack = C + +180.000 deg
;   a(B) = (+1.000) * tip_angle_poly(B) + +0.000 deg
; offplane_y_equation (calibration): y_offplane_mm = 1.082018*b + 4.553792
; offplane_y_r_squared: 0.952224
; offplane sign convention applied: -1.0
; axes: X->X, Y->Y, Z->Z, B->B, C->C, U->U
; edges planned = 39 (all edges extruded exactly once)
; total print length ~ 546.000 mm
; total tip travel  ~ 390.641 mm
; tangent angle error [min/mean/max] = 0.068 / 0.078 / 0.094 deg
; head-lead [min/mean/max] mm = -10.380 / -8.391 / -5.209
; head-front ok / violations = 0 / 39
; B used range = [-3.459, -2.094]
; C used range = [-870.000, 510.000]
; X gantry range used = [54.353, 105.935]
; Y gantry range used = [10.426, 57.864]
; Z gantry range used = [-155.947, -110.223]
; virtual bbox (enforced during print/travel): X[0.000, 160.000] Y[0.000, 160.000] Z[-170.000, -10.000]
; startup safe approach Z = 0.000
; start pose (stage) = [65.000, 20.000, 0.000, 0.000, 0.000]
; end pose (stage)   = [65.000, 20.000, 0.000, 0.000, 0.000]
; bottom-center start (tip-space heuristic origin) = [79.000, 28.083, -152.862]
; extrusion_per_mm = 0.008000 U/mm-path (coordinated with print feed)
; pressure_offset_mm = 5.000 U mm
; pressure advance/retract feeds = 120.0/240.0 mm/min on U
; preflow_dwell_ms = 200   node_dwell_ms = 200
G90
M82
G92 U0
; safe startup approach: Z first, then XY, then dive to start Z
G1 Z0.000 B0.000 C0.000 F1200
G1 X65.000 Y20.000 B0.000 C0.000 F1200
G1 Z0.000 B0.000 C0.000 F1200
; --- edge 1/39 ---
; len=14.000 mm, angle_error=0.068 deg, B=-2.094, C=270.000, head_lead=-10.380 mm, head_front_ok=0
; startup move to first strut start (bottom-center-first ordering)
G1 X81.288 Y14.468 Z-155.947 B-2.094 C270.000 F1200
; pressure preload before print pass
G1 U5.000 F120
G4 P200
G1 X81.288 Y15.478 Z-154.518 B-2.094 C270.000 U5.014 F300
G1 X81.288 Y16.488 Z-153.090 B-2.094 C270.000 U5.028 F300
G1 X81.288 Y17.499 Z-151.661 B-2.094 C270.000 U5.042 F300
G1 X81.288 Y18.509 Z-150.232 B-2.094 C270.000 U5.056 F300
G1 X81.288 Y19.520 Z-148.803 B-2.094 C270.000 U5.070 F300
G1 X81.288 Y20.530 Z-147.374 B-2.094 C270.000 U5.084 F300
G1 X81.288 Y21.540 Z-145.945 B-2.094 C270.000 U5.098 F300
G1 X81.288 Y22.551 Z-144.516 B-2.094 C270.000 U5.112 F300
; end-of-pass dwell for node formation / liquid flow
G4 P200
; pressure release before travel
G1 U0.112 F240
; --- edge 2/39 ---
; len=14.000 mm, angle_error=0.068 deg, B=-2.094, C=390.000, head_lead=-10.380 mm, head_front_ok=0
; non-print travel to next strut start (tip exact)
G1 X89.647 Y36.872 Z-155.947 B-2.094 C390.000 F1200
; pressure preload before print pass
G1 U5.112 F120
G4 P200
G1 X88.772 Y36.366 Z-154.518 B-2.094 C390.000 U5.126 F300
G1 X87.897 Y35.861 Z-153.090 B-2.094 C390.000 U5.140 F300
G1 X87.022 Y35.356 Z-151.661 B-2.094 C390.000 U5.154 F300
G1 X86.147 Y34.851 Z-150.232 B-2.094 C390.000 U5.168 F300
G1 X85.272 Y34.346 Z-148.803 B-2.094 C390.000 U5.182 F300
G1 X84.397 Y33.840 Z-147.374 B-2.094 C390.000 U5.196 F300
G1 X83.522 Y33.335 Z-145.945 B-2.094 C390.000 U5.210 F300
G1 X82.647 Y32.830 Z-144.516 B-2.094 C390.000 U5.224 F300
; end-of-pass dwell for node formation / liquid flow
G4 P200
; pressure release before travel
G1 U0.224 F240
; --- edge 3/39 ---
; len=14.000 mm, angle_error=0.068 deg, B=-2.094, C=510.000, head_lead=-10.380 mm, head_front_ok=0
; non-print travel to next strut start (tip exact)
G1 X66.065 Y32.909 Z-155.947 B-2.094 C510.000 F1200
; pressure preload before print pass
G1 U5.224 F120
G4 P200
G1 X66.940 Y32.404 Z-154.518 B-2.094 C510.000 U5.238 F300
G1 X67.815 Y31.899 Z-153.090 B-2.094 C510.000 U5.252 F300
G1 X68.690 Y31.394 Z-151.661 B-2.094 C510.000 U5.266 F300
G1 X69.565 Y30.889 Z-150.232 B-2.094 C510.000 U5.280 F300
G1 X70.440 Y30.383 Z-148.803 B-2.094 C510.000 U5.294 F300
G1 X71.315 Y29.878 Z-147.374 B-2.094 C510.000 U5.308 F300
G1 X72.190 Y29.373 Z-145.945 B-2.094 C510.000 U5.322 F300
G1 X73.065 Y28.868 Z-144.516 B-2.094 C510.000 U5.336 F300
; end-of-pass dwell for node formation / liquid flow
G4 P200
; pressure release before travel
G1 U0.336 F240
; --- edge 4/39 ---
; len=14.000 mm, angle_error=0.094 deg, B=-3.459, C=360.000, head_lead=-5.209 mm, head_front_ok=0
; non-print travel to next strut start (tip exact)
G1 X91.209 Y24.852 Z-154.796 B-3.459 C360.000 F1200
; pressure preload before print pass
G1 U5.336 F120
G4 P200
G1 X89.459 Y24.852 Z-154.796 B-3.459 C360.000 U5.350 F300
G1 X87.709 Y24.852 Z-154.796 B-3.459 C360.000 U5.364 F300
G1 X85.959 Y24.852 Z-154.796 B-3.459 C360.000 U5.378 F300
G1 X84.209 Y24.852 Z-154.796 B-3.459 C360.000 U5.392 F300
G1 X82.459 Y24.852 Z-154.796 B-3.459 C360.000 U5.406 F300
G1 X80.709 Y24.852 Z-154.796 B-3.459 C360.000 U5.420 F300
G1 X78.959 Y24.852 Z-154.796 B-3.459 C360.000 U5.434 F300
G1 X77.209 Y24.852 Z-154.796 B-3.459 C360.000 U5.448 F300
; end-of-pass dwell for node formation / liquid flow
G4 P200
; keep pressure charged for continuous horizontal tip-pivot into next edge
; --- edge 5/39 ---
; len=14.000 mm, angle_error=0.094 deg, B=-3.459, C=240.000, head_lead=-5.209 mm, head_front_ok=0
; continuous horizontal transition: tip-fixed pivot to next line direction
; (same tip vertex, new B/C and corresponding stage XYZ)
G1 X70.098 Y19.125 Z-154.796 B-3.459 C240.000 F1200
G1 X70.973 Y20.641 Z-154.796 B-3.459 C240.000 U5.462 F300
G1 X71.848 Y22.156 Z-154.796 B-3.459 C240.000 U5.476 F300
G1 X72.723 Y23.672 Z-154.796 B-3.459 C240.000 U5.490 F300
G1 X73.598 Y25.188 Z-154.796 B-3.459 C240.000 U5.504 F300
G1 X74.473 Y26.703 Z-154.796 B-3.459 C240.000 U5.518 F300
G1 X75.348 Y28.219 Z-154.796 B-3.459 C240.000 U5.532 F300
G1 X76.223 Y29.734 Z-154.796 B-3.459 C240.000 U5.546 F300
G1 X77.098 Y31.250 Z-154.796 B-3.459 C240.000 U5.560 F300
; end-of-pass dwell for node formation / liquid flow
G4 P200
; keep pressure charged for continuous horizontal tip-pivot into next edge
; --- edge 6/39 ---
; len=14.000 mm, angle_error=0.094 deg, B=-3.459, C=120.000, head_lead=-5.209 mm, head_front_ok=0
; continuous horizontal transition: tip-fixed pivot to next line direction
; (same tip vertex, new B/C and corresponding stage XYZ)
G1 X75.694 Y40.271 Z-154.796 B-3.459 C120.000 F1200
G1 X76.569 Y38.756 Z-154.796 B-3.459 C120.000 U5.574 F300
G1 X77.444 Y37.240 Z-154.796 B-3.459 C120.000 U5.588 F300
G1 X78.319 Y35.725 Z-154.796 B-3.459 C120.000 U5.602 F300
G1 X79.194 Y34.209 Z-154.796 B-3.459 C120.000 U5.616 F300
G1 X80.069 Y32.694 Z-154.796 B-3.459 C120.000 U5.630 F300
G1 X80.944 Y31.178 Z-154.796 B-3.459 C120.000 U5.644 F300
G1 X81.819 Y29.662 Z-154.796 B-3.459 C120.000 U5.658 F300
G1 X82.694 Y28.147 Z-154.796 B-3.459 C120.000 U5.672 F300
; end-of-pass dwell for node formation / liquid flow
G4 P200
; pressure release before travel
G1 U0.672 F240
; --- edge 7/39 ---
; len=14.000 mm, angle_error=0.068 deg, B=-2.094, C=150.000, head_lead=-10.380 mm, head_front_ok=0
; non-print travel to next strut start (tip exact)
G1 X66.065 Y40.992 Z-144.516 B-2.094 C150.000 F1200
; pressure preload before print pass
G1 U5.672 F120
G4 P200
G1 X66.940 Y40.487 Z-143.087 B-2.094 C150.000 U5.686 F300
G1 X67.815 Y39.982 Z-141.659 B-2.094 C150.000 U5.700 F300
G1 X68.690 Y39.477 Z-140.230 B-2.094 C150.000 U5.714 F300
G1 X69.565 Y38.972 Z-138.801 B-2.094 C150.000 U5.728 F300
G1 X70.440 Y38.466 Z-137.372 B-2.094 C150.000 U5.742 F300
G1 X71.315 Y37.961 Z-135.943 B-2.094 C150.000 U5.756 F300
G1 X72.190 Y37.456 Z-134.514 B-2.094 C150.000 U5.770 F300
G1 X73.065 Y36.951 Z-133.085 B-2.094 C150.000 U5.784 F300
; end-of-pass dwell for node formation / liquid flow
G4 P200
; pressure release before travel
G1 U0.784 F240
; --- edge 8/39 ---
; len=14.000 mm, angle_error=0.068 deg, B=-2.094, C=30.000, head_lead=-10.380 mm, head_front_ok=0
; non-print travel to next strut start (tip exact)
G1 X89.647 Y44.954 Z-144.516 B-2.094 C30.000 F1200
; pressure preload before print pass
G1 U5.784 F120
G4 P200
G1 X88.772 Y44.449 Z-143.087 B-2.094 C30.000 U5.798 F300
G1 X87.897 Y43.944 Z-141.659 B-2.094 C30.000 U5.812 F300
G1 X87.022 Y43.439 Z-140.230 B-2.094 C30.000 U5.826 F300
G1 X86.147 Y42.934 Z-138.801 B-2.094 C30.000 U5.840 F300
G1 X85.272 Y42.429 Z-137.372 B-2.094 C30.000 U5.854 F300
G1 X84.397 Y41.923 Z-135.943 B-2.094 C30.000 U5.868 F300
G1 X83.522 Y41.418 Z-134.514 B-2.094 C30.000 U5.882 F300
G1 X82.647 Y40.913 Z-133.085 B-2.094 C30.000 U5.896 F300
; end-of-pass dwell for node formation / liquid flow
G4 P200
; pressure release before travel
G1 U0.896 F240
; --- edge 9/39 ---
; len=14.000 mm, angle_error=0.068 deg, B=-2.094, C=150.000, head_lead=-10.380 mm, head_front_ok=0
; non-print travel to next strut start (tip exact)
G1 X59.065 Y28.868 Z-144.516 B-2.094 C150.000 F1200
; pressure preload before print pass
G1 U5.896 F120
G4 P200
G1 X59.940 Y28.363 Z-143.087 B-2.094 C150.000 U5.910 F300
G1 X60.815 Y27.858 Z-141.659 B-2.094 C150.000 U5.924 F300
G1 X61.690 Y27.352 Z-140.230 B-2.094 C150.000 U5.938 F300
G1 X62.565 Y26.847 Z-138.801 B-2.094 C150.000 U5.952 F300
G1 X63.440 Y26.342 Z-137.372 B-2.094 C150.000 U5.966 F300
G1 X64.315 Y25.837 Z-135.943 B-2.094 C150.000 U5.980 F300
G1 X65.190 Y25.332 Z-134.514 B-2.094 C150.000 U5.994 F300
G1 X66.065 Y24.826 Z-133.085 B-2.094 C150.000 U6.008 F300
; end-of-pass dwell for node formation / liquid flow
G4 P200
; pressure release before travel
G1 U1.008 F240
; --- edge 10/39 ---
; len=14.000 mm, angle_error=0.068 deg, B=-2.094, C=30.000, head_lead=-10.380 mm, head_front_ok=0
; non-print travel to next strut start (tip exact)
G1 X96.647 Y32.830 Z-144.516 B-2.094 C30.000 F1200
; pressure preload before print pass
G1 U6.008 F120
G4 P200
G1 X95.772 Y32.325 Z-143.087 B-2.094 C30.000 U6.022 F300
G1 X94.897 Y31.820 Z-141.659 B-2.094 C30.000 U6.036 F300
G1 X94.022 Y31.315 Z-140.230 B-2.094 C30.000 U6.050 F300
G1 X93.147 Y30.809 Z-138.801 B-2.094 C30.000 U6.064 F300
G1 X92.272 Y30.304 Z-137.372 B-2.094 C30.000 U6.078 F300
G1 X91.397 Y29.799 Z-135.943 B-2.094 C30.000 U6.092 F300
G1 X90.522 Y29.294 Z-134.514 B-2.094 C30.000 U6.106 F300
G1 X89.647 Y28.789 Z-133.085 B-2.094 C30.000 U6.120 F300
; end-of-pass dwell for node formation / liquid flow
G4 P200
; pressure release before travel
G1 U1.120 F240
; --- edge 11/39 ---
; len=14.000 mm, angle_error=0.068 deg, B=-2.094, C=-90.000, head_lead=-10.380 mm, head_front_ok=0
; non-print travel to next strut start (tip exact)
G1 X88.288 Y10.426 Z-144.516 B-2.094 C-90.000 F1200
; pressure preload before print pass
G1 U6.120 F120
G4 P200
G1 X88.288 Y11.437 Z-143.087 B-2.094 C-90.000 U6.134 F300
G1 X88.288 Y12.447 Z-141.659 B-2.094 C-90.000 U6.148 F300
G1 X88.288 Y13.457 Z-140.230 B-2.094 C-90.000 U6.162 F300
G1 X88.288 Y14.468 Z-138.801 B-2.094 C-90.000 U6.176 F300
G1 X88.288 Y15.478 Z-137.372 B-2.094 C-90.000 U6.190 F300
G1 X88.288 Y16.488 Z-135.943 B-2.094 C-90.000 U6.204 F300
G1 X88.288 Y17.499 Z-134.514 B-2.094 C-90.000 U6.218 F300
G1 X88.288 Y18.509 Z-133.085 B-2.094 C-90.000 U6.232 F300
; end-of-pass dwell for node formation / liquid flow
G4 P200
; pressure release before travel
G1 U1.232 F240
; --- edge 12/39 ---
; len=14.000 mm, angle_error=0.068 deg, B=-2.094, C=-90.000, head_lead=-10.380 mm, head_front_ok=0
; non-print travel to next strut start (tip exact)
G1 X74.288 Y10.426 Z-144.516 B-2.094 C-90.000 F1200
; pressure preload before print pass
G1 U6.232 F120
G4 P200
G1 X74.288 Y11.437 Z-143.087 B-2.094 C-90.000 U6.246 F300
G1 X74.288 Y12.447 Z-141.659 B-2.094 C-90.000 U6.260 F300
G1 X74.288 Y13.457 Z-140.230 B-2.094 C-90.000 U6.274 F300
G1 X74.288 Y14.468 Z-138.801 B-2.094 C-90.000 U6.288 F300
G1 X74.288 Y15.478 Z-137.372 B-2.094 C-90.000 U6.302 F300
G1 X74.288 Y16.488 Z-135.943 B-2.094 C-90.000 U6.316 F300
G1 X74.288 Y17.499 Z-134.514 B-2.094 C-90.000 U6.330 F300
G1 X74.288 Y18.509 Z-133.085 B-2.094 C-90.000 U6.344 F300
; end-of-pass dwell for node formation / liquid flow
G4 P200
; pressure release before travel
G1 U1.344 F240
; --- edge 13/39 ---
; len=14.000 mm, angle_error=0.068 deg, B=-2.094, C=-90.000, head_lead=-10.380 mm, head_front_ok=0
; non-print travel to next strut start (tip exact)
G1 X81.288 Y22.551 Z-144.516 B-2.094 C-90.000 F1200
; pressure preload before print pass
G1 U6.344 F120
G4 P200
G1 X81.288 Y23.561 Z-143.087 B-2.094 C-90.000 U6.358 F300
G1 X81.288 Y24.571 Z-141.659 B-2.094 C-90.000 U6.372 F300
G1 X81.288 Y25.582 Z-140.230 B-2.094 C-90.000 U6.386 F300
G1 X81.288 Y26.592 Z-138.801 B-2.094 C-90.000 U6.400 F300
G1 X81.288 Y27.602 Z-137.372 B-2.094 C-90.000 U6.414 F300
G1 X81.288 Y28.613 Z-135.943 B-2.094 C-90.000 U6.428 F300
G1 X81.288 Y29.623 Z-134.514 B-2.094 C-90.000 U6.442 F300
G1 X81.288 Y30.634 Z-133.085 B-2.094 C-90.000 U6.456 F300
; end-of-pass dwell for node formation / liquid flow
G4 P200
; pressure release before travel
G1 U1.456 F240
; --- edge 14/39 ---
; len=14.000 mm, angle_error=0.068 deg, B=-2.094, C=-210.000, head_lead=-10.380 mm, head_front_ok=0
; non-print travel to next strut start (tip exact)
G1 X73.065 Y28.868 Z-144.516 B-2.094 C-210.000 F1200
; pressure preload before print pass
G1 U6.456 F120
G4 P200
G1 X73.940 Y28.363 Z-143.087 B-2.094 C-210.000 U6.470 F300
G1 X74.815 Y27.858 Z-141.659 B-2.094 C-210.000 U6.484 F300
G1 X75.690 Y27.352 Z-140.230 B-2.094 C-210.000 U6.498 F300
G1 X76.565 Y26.847 Z-138.801 B-2.094 C-210.000 U6.512 F300
G1 X77.440 Y26.342 Z-137.372 B-2.094 C-210.000 U6.526 F300
G1 X78.315 Y25.837 Z-135.943 B-2.094 C-210.000 U6.540 F300
G1 X79.190 Y25.332 Z-134.514 B-2.094 C-210.000 U6.554 F300
G1 X80.065 Y24.826 Z-133.085 B-2.094 C-210.000 U6.568 F300
; end-of-pass dwell for node formation / liquid flow
G4 P200
; pressure release before travel
G1 U1.568 F240
; --- edge 15/39 ---
; len=14.000 mm, angle_error=0.068 deg, B=-2.094, C=-330.000, head_lead=-10.380 mm, head_front_ok=0
; non-print travel to next strut start (tip exact)
G1 X82.647 Y32.830 Z-144.516 B-2.094 C-330.000 F1200
; pressure preload before print pass
G1 U6.568 F120
G4 P200
G1 X81.772 Y32.325 Z-143.087 B-2.094 C-330.000 U6.582 F300
G1 X80.897 Y31.820 Z-141.659 B-2.094 C-330.000 U6.596 F300
G1 X80.022 Y31.315 Z-140.230 B-2.094 C-330.000 U6.610 F300
G1 X79.147 Y30.809 Z-138.801 B-2.094 C-330.000 U6.624 F300
G1 X78.272 Y30.304 Z-137.372 B-2.094 C-330.000 U6.638 F300
G1 X77.397 Y29.799 Z-135.943 B-2.094 C-330.000 U6.652 F300
G1 X76.522 Y29.294 Z-134.514 B-2.094 C-330.000 U6.666 F300
G1 X75.647 Y28.789 Z-133.085 B-2.094 C-330.000 U6.680 F300
; end-of-pass dwell for node formation / liquid flow
G4 P200
; pressure release before travel
G1 U1.680 F240
; --- edge 16/39 ---
; len=14.000 mm, angle_error=0.094 deg, B=-3.459, C=-480.000, head_lead=-5.209 mm, head_front_ok=0
; non-print travel to next strut start (tip exact)
G1 X63.098 Y15.084 Z-143.365 B-3.459 C-480.000 F1200
; pressure preload before print pass
G1 U6.680 F120
G4 P200
G1 X63.973 Y16.599 Z-143.365 B-3.459 C-480.000 U6.694 F300
G1 X64.848 Y18.115 Z-143.365 B-3.459 C-480.000 U6.708 F300
G1 X65.723 Y19.631 Z-143.365 B-3.459 C-480.000 U6.722 F300
G1 X66.598 Y21.146 Z-143.365 B-3.459 C-480.000 U6.736 F300
G1 X67.473 Y22.662 Z-143.365 B-3.459 C-480.000 U6.750 F300
G1 X68.348 Y24.177 Z-143.365 B-3.459 C-480.000 U6.764 F300
G1 X69.223 Y25.693 Z-143.365 B-3.459 C-480.000 U6.778 F300
G1 X70.098 Y27.208 Z-143.365 B-3.459 C-480.000 U6.792 F300
; end-of-pass dwell for node formation / liquid flow
G4 P200
