; generated by tetrahedral_truss_tip_priority_tangent_soft.py
; strategy: exact tip position (hard) + tangent/nozzle angle alignment (soft)
; user tip-angle convention: angle measured FROM VERTICAL (horizontal line ~90 deg)
; head-front preference: choose edge direction so head/stage leads deposition point when possible
; build order heuristic: bottom-center-first, bottom-up, center-out
; geometry: double tetrahedron (mirrored along base plane)
; PHYSICAL tip kinematics unchanged; attack azimuth remap used only for tangency
; model assumptions:
;   physical tip_offset(B,C) = [r(B) cos(C), r(B) sin(C), z(B)]
;   nozzle attack dir(B,C) = [sin(a(B)) cos(theta_attack), sin(a(B)) sin(theta_attack), cos(a(B))]
;   theta_attack = C + +180.000 deg
;   a(B) = (+1.000) * tip_angle_poly(B) + +0.000 deg
; axes: X->X, Y->Y, Z->Z, B->B, C->C, U->U
; edges planned = 39 (all edges extruded exactly once)
; total print length ~ 546.000 mm
; total tip travel  ~ 358.191 mm
; tangent angle error [min/mean/max] = 0.007 / 0.056 / 0.087 deg
; head-lead [min/mean/max] mm = -8.185 / -6.243 / -3.135
; head-front ok / violations = 0 / 39
; B used range = [-2.727, -1.360]
; C used range = [-1590.000, 270.000]
; X gantry range used = [40.818, 87.182]
; Y gantry range used = [43.439, 84.851]
; Z gantry range used = [-115.390, -69.666]
; virtual bbox (enforced during print/travel): X[10.000, 110.000] Y[10.000, 110.000] Z[-120.000, -20.000]
; startup safe approach Z = 0.000
; start pose (stage) = [60.000, 40.000, -30.000, 0.000, 0.000]
; end pose (stage)   = [60.000, 40.000, -30.000, 0.000, 0.000]
; bottom-center start (tip-space heuristic origin) = [64.000, 58.083, -112.862]
; extrusion_per_mm = 0.020000 U/mm-path (coordinated with print feed)
; pressure_offset_mm = 3.000 U mm
; pressure advance/retract feeds = 120.0/240.0 mm/min on U
; preflow_dwell_ms = 700   node_dwell_ms = 700
G90
M82
G92 U0
; safe startup approach: Z first, then XY, then dive to start Z
G1 Z0.000 B0.000 C0.000 F1200
G1 X60.000 Y40.000 B0.000 C0.000 F1200
G1 Z-30.000 B0.000 C0.000 F1200
; --- edge 1/39 ---
; len=14.000 mm, angle_error=0.087 deg, B=-1.360, C=270.000, head_lead=-8.185 mm, head_front_ok=0
; startup move to first strut start (bottom-center-first ordering)
G1 X64.000 Y47.481 Z-115.390 B-1.360 C270.000 F1200
; pressure preload before print pass
G1 U3.000 F120
G4 P700
G1 X64.000 Y48.491 Z-113.961 B-1.360 C270.000 U3.035 F300
G1 X64.000 Y49.501 Z-112.532 B-1.360 C270.000 U3.070 F300
G1 X64.000 Y50.512 Z-111.104 B-1.360 C270.000 U3.105 F300
G1 X64.000 Y51.522 Z-109.675 B-1.360 C270.000 U3.140 F300
G1 X64.000 Y52.533 Z-108.246 B-1.360 C270.000 U3.175 F300
G1 X64.000 Y53.543 Z-106.817 B-1.360 C270.000 U3.210 F300
G1 X64.000 Y54.553 Z-105.388 B-1.360 C270.000 U3.245 F300
G1 X64.000 Y55.564 Z-103.959 B-1.360 C270.000 U3.280 F300
; end-of-pass dwell for node formation / liquid flow
G4 P700
; pressure release before travel
G1 U0.280 F240
; --- edge 2/39 ---
; len=14.000 mm, angle_error=0.007 deg, B=-2.727, C=120.000, head_lead=-3.135 mm, head_front_ok=0
; non-print travel to next strut start (tip exact)
G1 X62.432 Y68.881 Z-114.024 B-2.727 C120.000 F1200
; pressure preload before print pass
G1 U3.280 F120
G4 P700
G1 X63.307 Y67.365 Z-114.024 B-2.727 C120.000 U3.315 F300
G1 X64.182 Y65.850 Z-114.024 B-2.727 C120.000 U3.350 F300
G1 X65.057 Y64.334 Z-114.024 B-2.727 C120.000 U3.385 F300
G1 X65.932 Y62.819 Z-114.024 B-2.727 C120.000 U3.420 F300
G1 X66.807 Y61.303 Z-114.024 B-2.727 C120.000 U3.455 F300
G1 X67.682 Y59.788 Z-114.024 B-2.727 C120.000 U3.490 F300
G1 X68.557 Y58.272 Z-114.024 B-2.727 C120.000 U3.525 F300
G1 X69.432 Y56.757 Z-114.024 B-2.727 C120.000 U3.560 F300
; end-of-pass dwell for node formation / liquid flow
G4 P700
; keep pressure charged for continuous horizontal tip-pivot into next edge
; --- edge 3/39 ---
; len=14.000 mm, angle_error=0.007 deg, B=-2.727, C=0.000, head_lead=-3.135 mm, head_front_ok=0
; continuous horizontal transition: tip-fixed pivot to next line direction
; (same tip vertex, new B/C and corresponding stage XYZ)
G1 X74.135 Y54.041 Z-114.024 B-2.727 C0.000 F1200
G1 X72.385 Y54.041 Z-114.024 B-2.727 C0.000 U3.595 F300
G1 X70.635 Y54.041 Z-114.024 B-2.727 C0.000 U3.630 F300
G1 X68.885 Y54.041 Z-114.024 B-2.727 C0.000 U3.665 F300
G1 X67.135 Y54.041 Z-114.024 B-2.727 C0.000 U3.700 F300
G1 X65.385 Y54.041 Z-114.024 B-2.727 C0.000 U3.735 F300
G1 X63.635 Y54.041 Z-114.024 B-2.727 C0.000 U3.770 F300
G1 X61.885 Y54.041 Z-114.024 B-2.727 C0.000 U3.805 F300
G1 X60.135 Y54.041 Z-114.024 B-2.727 C0.000 U3.840 F300
; end-of-pass dwell for node formation / liquid flow
G4 P700
; keep pressure charged for continuous horizontal tip-pivot into next edge
; --- edge 4/39 ---
; len=14.000 mm, angle_error=0.007 deg, B=-2.727, C=-120.000, head_lead=-3.135 mm, head_front_ok=0
; continuous horizontal transition: tip-fixed pivot to next line direction
; (same tip vertex, new B/C and corresponding stage XYZ)
G1 X55.432 Y51.326 Z-114.024 B-2.727 C-120.000 F1200
G1 X56.307 Y52.842 Z-114.024 B-2.727 C-120.000 U3.875 F300
G1 X57.182 Y54.357 Z-114.024 B-2.727 C-120.000 U3.910 F300
G1 X58.057 Y55.873 Z-114.024 B-2.727 C-120.000 U3.945 F300
G1 X58.932 Y57.388 Z-114.024 B-2.727 C-120.000 U3.980 F300
G1 X59.807 Y58.904 Z-114.024 B-2.727 C-120.000 U4.015 F300
G1 X60.682 Y60.420 Z-114.024 B-2.727 C-120.000 U4.050 F300
G1 X61.557 Y61.935 Z-114.024 B-2.727 C-120.000 U4.085 F300
G1 X62.432 Y63.451 Z-114.024 B-2.727 C-120.000 U4.120 F300
; end-of-pass dwell for node formation / liquid flow
G4 P700
; pressure release before travel
G1 U1.120 F240
; --- edge 5/39 ---
; len=14.000 mm, angle_error=0.087 deg, B=-1.360, C=-210.000, head_lead=-8.185 mm, head_front_ok=0
; non-print travel to next strut start (tip exact)
G1 X54.818 Y63.384 Z-115.390 B-1.360 C-210.000 F1200
; pressure preload before print pass
G1 U4.120 F120
G4 P700
G1 X55.693 Y62.879 Z-113.961 B-1.360 C-210.000 U4.155 F300
G1 X56.568 Y62.374 Z-112.532 B-1.360 C-210.000 U4.190 F300
G1 X57.443 Y61.868 Z-111.104 B-1.360 C-210.000 U4.225 F300
G1 X58.318 Y61.363 Z-109.675 B-1.360 C-210.000 U4.260 F300
G1 X59.193 Y60.858 Z-108.246 B-1.360 C-210.000 U4.295 F300
G1 X60.068 Y60.353 Z-106.817 B-1.360 C-210.000 U4.330 F300
G1 X60.943 Y59.848 Z-105.388 B-1.360 C-210.000 U4.365 F300
G1 X61.818 Y59.343 Z-103.959 B-1.360 C-210.000 U4.400 F300
; end-of-pass dwell for node formation / liquid flow
G4 P700
; pressure release before travel
G1 U1.400 F240
; --- edge 6/39 ---
; len=14.000 mm, angle_error=0.087 deg, B=-1.360, C=-330.000, head_lead=-8.185 mm, head_front_ok=0
; non-print travel to next strut start (tip exact)
G1 X73.182 Y63.384 Z-115.390 B-1.360 C-330.000 F1200
; pressure preload before print pass
G1 U4.400 F120
G4 P700
G1 X72.307 Y62.879 Z-113.961 B-1.360 C-330.000 U4.435 F300
G1 X71.432 Y62.374 Z-112.532 B-1.360 C-330.000 U4.470 F300
G1 X70.557 Y61.868 Z-111.104 B-1.360 C-330.000 U4.505 F300
G1 X69.682 Y61.363 Z-109.675 B-1.360 C-330.000 U4.540 F300
G1 X68.807 Y60.858 Z-108.246 B-1.360 C-330.000 U4.575 F300
G1 X67.932 Y60.353 Z-106.817 B-1.360 C-330.000 U4.610 F300
G1 X67.057 Y59.848 Z-105.388 B-1.360 C-330.000 U4.645 F300
G1 X66.182 Y59.343 Z-103.959 B-1.360 C-330.000 U4.680 F300
; end-of-pass dwell for node formation / liquid flow
G4 P700
; pressure release before travel
G1 U1.680 F240
; --- edge 7/39 ---
; len=14.000 mm, angle_error=0.087 deg, B=-1.360, C=-210.000, head_lead=-8.185 mm, head_front_ok=0
; non-print travel to next strut start (tip exact)
G1 X47.818 Y59.343 Z-103.959 B-1.360 C-210.000 F1200
; pressure preload before print pass
G1 U4.680 F120
G4 P700
G1 X48.693 Y58.837 Z-102.530 B-1.360 C-210.000 U4.715 F300
G1 X49.568 Y58.332 Z-101.101 B-1.360 C-210.000 U4.750 F300
G1 X50.443 Y57.827 Z-99.673 B-1.360 C-210.000 U4.785 F300
G1 X51.318 Y57.322 Z-98.244 B-1.360 C-210.000 U4.820 F300
G1 X52.193 Y56.817 Z-96.815 B-1.360 C-210.000 U4.855 F300
G1 X53.068 Y56.311 Z-95.386 B-1.360 C-210.000 U4.890 F300
G1 X53.943 Y55.806 Z-93.957 B-1.360 C-210.000 U4.925 F300
G1 X54.818 Y55.301 Z-92.528 B-1.360 C-210.000 U4.960 F300
; end-of-pass dwell for node formation / liquid flow
G4 P700
; pressure release before travel
G1 U1.960 F240
; --- edge 8/39 ---
; len=14.000 mm, angle_error=0.007 deg, B=-2.727, C=-120.000, head_lead=-3.135 mm, head_front_ok=0
; non-print travel to next strut start (tip exact)
G1 X62.432 Y47.285 Z-102.593 B-2.727 C-120.000 F1200
; pressure preload before print pass
G1 U4.960 F120
G4 P700
G1 X63.307 Y48.800 Z-102.593 B-2.727 C-120.000 U4.995 F300
G1 X64.182 Y50.316 Z-102.593 B-2.727 C-120.000 U5.030 F300
G1 X65.057 Y51.832 Z-102.593 B-2.727 C-120.000 U5.065 F300
G1 X65.932 Y53.347 Z-102.593 B-2.727 C-120.000 U5.100 F300
G1 X66.807 Y54.863 Z-102.593 B-2.727 C-120.000 U5.135 F300
G1 X67.682 Y56.378 Z-102.593 B-2.727 C-120.000 U5.170 F300
G1 X68.557 Y57.894 Z-102.593 B-2.727 C-120.000 U5.205 F300
G1 X69.432 Y59.409 Z-102.593 B-2.727 C-120.000 U5.240 F300
; end-of-pass dwell for node formation / liquid flow
G4 P700
; keep pressure charged for continuous horizontal tip-pivot into next edge
; --- edge 9/39 ---
; len=14.000 mm, angle_error=0.007 deg, B=-2.727, C=-240.000, head_lead=-3.135 mm, head_front_ok=0
; continuous horizontal transition: tip-fixed pivot to next line direction
; (same tip vertex, new B/C and corresponding stage XYZ)
G1 X69.432 Y64.839 Z-102.593 B-2.727 C-240.000 F1200
G1 X70.307 Y63.324 Z-102.593 B-2.727 C-240.000 U5.275 F300
G1 X71.182 Y61.808 Z-102.593 B-2.727 C-240.000 U5.310 F300
G1 X72.057 Y60.293 Z-102.593 B-2.727 C-240.000 U5.345 F300
G1 X72.932 Y58.777 Z-102.593 B-2.727 C-240.000 U5.380 F300
G1 X73.807 Y57.262 Z-102.593 B-2.727 C-240.000 U5.415 F300
G1 X74.682 Y55.746 Z-102.593 B-2.727 C-240.000 U5.450 F300
G1 X75.557 Y54.231 Z-102.593 B-2.727 C-240.000 U5.485 F300
G1 X76.432 Y52.715 Z-102.593 B-2.727 C-240.000 U5.520 F300
; end-of-pass dwell for node formation / liquid flow
G4 P700
; keep pressure charged for continuous horizontal tip-pivot into next edge
; --- edge 10/39 ---
; len=14.000 mm, angle_error=0.007 deg, B=-2.727, C=-360.000, head_lead=-3.135 mm, head_front_ok=0
; continuous horizontal transition: tip-fixed pivot to next line direction
; (same tip vertex, new B/C and corresponding stage XYZ)
G1 X81.135 Y50.000 Z-102.593 B-2.727 C-360.000 F1200
G1 X79.385 Y50.000 Z-102.593 B-2.727 C-360.000 U5.555 F300
G1 X77.635 Y50.000 Z-102.593 B-2.727 C-360.000 U5.590 F300
G1 X75.885 Y50.000 Z-102.593 B-2.727 C-360.000 U5.625 F300
G1 X74.135 Y50.000 Z-102.593 B-2.727 C-360.000 U5.660 F300
G1 X72.385 Y50.000 Z-102.593 B-2.727 C-360.000 U5.695 F300
G1 X70.635 Y50.000 Z-102.593 B-2.727 C-360.000 U5.730 F300
G1 X68.885 Y50.000 Z-102.593 B-2.727 C-360.000 U5.765 F300
G1 X67.135 Y50.000 Z-102.593 B-2.727 C-360.000 U5.800 F300
; end-of-pass dwell for node formation / liquid flow
G4 P700
; keep pressure charged for continuous horizontal tip-pivot into next edge
; --- edge 11/39 ---
; len=14.000 mm, angle_error=0.007 deg, B=-2.727, C=-420.000, head_lead=-3.135 mm, head_front_ok=0
; continuous horizontal transition: tip-fixed pivot to next line direction
; (same tip vertex, new B/C and corresponding stage XYZ)
G1 X65.568 Y47.285 Z-102.593 B-2.727 C-420.000 F1200
G1 X64.693 Y48.800 Z-102.593 B-2.727 C-420.000 U5.835 F300
G1 X63.818 Y50.316 Z-102.593 B-2.727 C-420.000 U5.870 F300
G1 X62.943 Y51.832 Z-102.593 B-2.727 C-420.000 U5.905 F300
G1 X62.068 Y53.347 Z-102.593 B-2.727 C-420.000 U5.940 F300
G1 X61.193 Y54.863 Z-102.593 B-2.727 C-420.000 U5.975 F300
G1 X60.318 Y56.378 Z-102.593 B-2.727 C-420.000 U6.010 F300
G1 X59.443 Y57.894 Z-102.593 B-2.727 C-420.000 U6.045 F300
G1 X58.568 Y59.409 Z-102.593 B-2.727 C-420.000 U6.080 F300
; end-of-pass dwell for node formation / liquid flow
G4 P700
; keep pressure charged for continuous horizontal tip-pivot into next edge
; --- edge 12/39 ---
; len=14.000 mm, angle_error=0.007 deg, B=-2.727, C=-480.000, head_lead=-3.135 mm, head_front_ok=0
; continuous horizontal transition: tip-fixed pivot to next line direction
; (same tip vertex, new B/C and corresponding stage XYZ)
G1 X55.432 Y59.409 Z-102.593 B-2.727 C-480.000 F1200
G1 X56.307 Y60.925 Z-102.593 B-2.727 C-480.000 U6.115 F300
G1 X57.182 Y62.440 Z-102.593 B-2.727 C-480.000 U6.150 F300
G1 X58.057 Y63.956 Z-102.593 B-2.727 C-480.000 U6.185 F300
G1 X58.932 Y65.471 Z-102.593 B-2.727 C-480.000 U6.220 F300
G1 X59.807 Y66.987 Z-102.593 B-2.727 C-480.000 U6.255 F300
G1 X60.682 Y68.502 Z-102.593 B-2.727 C-480.000 U6.290 F300
G1 X61.557 Y70.018 Z-102.593 B-2.727 C-480.000 U6.325 F300
G1 X62.432 Y71.534 Z-102.593 B-2.727 C-480.000 U6.360 F300
; end-of-pass dwell for node formation / liquid flow
G4 P700
; keep pressure charged for continuous horizontal tip-pivot into next edge
; --- edge 13/39 ---
; len=14.000 mm, angle_error=0.007 deg, B=-2.727, C=-600.000, head_lead=-3.135 mm, head_front_ok=0
; continuous horizontal transition: tip-fixed pivot to next line direction
; (same tip vertex, new B/C and corresponding stage XYZ)
G1 X62.432 Y76.964 Z-102.593 B-2.727 C-600.000 F1200
G1 X63.307 Y75.448 Z-102.593 B-2.727 C-600.000 U6.395 F300
G1 X64.182 Y73.933 Z-102.593 B-2.727 C-600.000 U6.430 F300
G1 X65.057 Y72.417 Z-102.593 B-2.727 C-600.000 U6.465 F300
G1 X65.932 Y70.902 Z-102.593 B-2.727 C-600.000 U6.500 F300
G1 X66.807 Y69.386 Z-102.593 B-2.727 C-600.000 U6.535 F300
G1 X67.682 Y67.871 Z-102.593 B-2.727 C-600.000 U6.570 F300
G1 X68.557 Y66.355 Z-102.593 B-2.727 C-600.000 U6.605 F300
G1 X69.432 Y64.839 Z-102.593 B-2.727 C-600.000 U6.640 F300
; end-of-pass dwell for node formation / liquid flow
G4 P700
; keep pressure charged for continuous horizontal tip-pivot into next edge
; --- edge 14/39 ---
; len=14.000 mm, angle_error=0.007 deg, B=-2.727, C=-720.000, head_lead=-3.135 mm, head_front_ok=0
; continuous horizontal transition: tip-fixed pivot to next line direction
; (same tip vertex, new B/C and corresponding stage XYZ)
G1 X74.135 Y62.124 Z-102.593 B-2.727 C-720.000 F1200
G1 X72.385 Y62.124 Z-102.593 B-2.727 C-720.000 U6.675 F300
G1 X70.635 Y62.124 Z-102.593 B-2.727 C-720.000 U6.710 F300
G1 X68.885 Y62.124 Z-102.593 B-2.727 C-720.000 U6.745 F300
G1 X67.135 Y62.124 Z-102.593 B-2.727 C-720.000 U6.780 F300
G1 X65.385 Y62.124 Z-102.593 B-2.727 C-720.000 U6.815 F300
G1 X63.635 Y62.124 Z-102.593 B-2.727 C-720.000 U6.850 F300
G1 X61.885 Y62.124 Z-102.593 B-2.727 C-720.000 U6.885 F300
G1 X60.135 Y62.124 Z-102.593 B-2.727 C-720.000 U6.920 F300
; end-of-pass dwell for node formation / liquid flow
G4 P700
; keep pressure charged for continuous horizontal tip-pivot into next edge
; --- edge 15/39 ---
; len=14.000 mm, angle_error=0.007 deg, B=-2.727, C=-660.000, head_lead=-3.135 mm, head_front_ok=0
; continuous horizontal transition: tip-fixed pivot to next line direction
; (same tip vertex, new B/C and corresponding stage XYZ)
G1 X58.568 Y64.839 Z-102.593 B-2.727 C-660.000 F1200
G1 X57.693 Y63.324 Z-102.593 B-2.727 C-660.000 U6.955 F300
G1 X56.818 Y61.808 Z-102.593 B-2.727 C-660.000 U6.990 F300
G1 X55.943 Y60.293 Z-102.593 B-2.727 C-660.000 U7.025 F300
G1 X55.068 Y58.777 Z-102.593 B-2.727 C-660.000 U7.060 F300
G1 X54.193 Y57.262 Z-102.593 B-2.727 C-660.000 U7.095 F300
G1 X53.318 Y55.746 Z-102.593 B-2.727 C-660.000 U7.130 F300
G1 X52.443 Y54.231 Z-102.593 B-2.727 C-660.000 U7.165 F300
G1 X51.568 Y52.715 Z-102.593 B-2.727 C-660.000 U7.200 F300
; end-of-pass dwell for node formation / liquid flow
G4 P700
; keep pressure charged for continuous horizontal tip-pivot into next edge
; --- edge 16/39 ---
; len=14.000 mm, angle_error=0.007 deg, B=-2.727, C=-540.000, head_lead=-3.135 mm, head_front_ok=0
; continuous horizontal transition: tip-fixed pivot to next line direction
; (same tip vertex, new B/C and corresponding stage XYZ)
G1 X46.865 Y50.000 Z-102.593 B-2.727 C-540.000 F1200
G1 X48.615 Y50.000 Z-102.593 B-2.727 C-540.000 U7.235 F300
G1 X50.365 Y50.000 Z-102.593 B-2.727 C-540.000 U7.270 F300
G1 X52.115 Y50.000 Z-102.593 B-2.727 C-540.000 U7.305 F300
G1 X53.865 Y50.000 Z-102.593 B-2.727 C-540.000 U7.340 F300
