; generated by grid_xzb_from_calibration.py
; axes: X→X, Z→Z, pull→B, rot→C
; model:
;   X_tip = X_stage + sgn*r(B)   (sgn=+1 at C=c0, sgn=-1 at C=c180)
;   Z_tip = Z_stage + z(B)
; tip-angle convention: 0=-Z, 90=+X, 180=+Z, 270=-X
; mapping: if alpha<180 => C=c0, tip_angle=alpha; else C=c180, tip_angle=alpha-180
; calibrated tip-angle range: [10.774, 180.000] deg
; info: 880/1440 points requested outside calibrated tip-angle range and were clamped.
; B clamp: [-5.100, -0.000]
G90
G1 C0.000 F3000
G1 X49.732 Z-114.168 B-0.000 F300
G1 X49.732 Z-114.918 B-0.000 F300
G1 X49.732 Z-115.668 B-0.000 F300
G1 X49.732 Z-116.418 B-0.000 F300
G1 X49.732 Z-117.168 B-0.000 F300
G1 X49.732 Z-117.918 B-0.000 F300
G1 X49.732 Z-118.668 B-0.000 F300
G1 X49.732 Z-119.418 B-0.000 F300
G1 X49.732 Z-120.168 B-0.000 F300
G1 X49.732 Z-120.918 B-0.000 F300
G1 X49.732 Z-121.668 B-0.000 F300
G1 X49.732 Z-122.418 B-0.000 F300
G1 X49.732 Z-123.168 B-0.000 F300
G1 X49.732 Z-123.918 B-0.000 F300
G1 X49.732 Z-124.668 B-0.000 F300
G1 X49.732 Z-125.418 B-0.000 F300
G1 X49.732 Z-126.168 B-0.000 F300
G1 X49.732 Z-126.918 B-0.000 F300
G1 X49.732 Z-127.668 B-0.000 F300
G1 X49.732 Z-128.418 B-0.000 F300
G1 X49.732 Z-129.168 B-0.000 F300
G1 X49.732 Z-129.918 B-0.000 F300
G1 X49.732 Z-130.668 B-0.000 F300
G1 X49.732 Z-131.418 B-0.000 F300
G1 X49.732 Z-132.168 B-0.000 F300
G1 X49.732 Z-132.918 B-0.000 F300
G1 X49.732 Z-133.668 B-0.000 F300
G1 X49.732 Z-134.418 B-0.000 F300
G1 X49.732 Z-135.168 B-0.000 F300
G1 X49.732 Z-135.918 B-0.000 F300
G1 X49.732 Z-136.668 B-0.000 F300
G1 X49.732 Z-137.418 B-0.000 F300
G1 X49.732 Z-138.168 B-0.000 F300
G1 X49.732 Z-138.918 B-0.000 F300
G1 X49.732 Z-139.668 B-0.000 F300
G1 X49.732 Z-140.418 B-0.000 F300
G1 X49.732 Z-141.168 B-0.000 F300
G1 X49.732 Z-141.918 B-0.000 F300
G1 X49.732 Z-142.668 B-0.000 F300
G1 X49.732 Z-143.418 B-0.000 F300
G1 X49.732 Z-114.168 B-0.000 F300
G1 X49.732 Z-114.918 B-0.000 F300
G1 X49.732 Z-115.668 B-0.000 F300
G1 X49.732 Z-116.418 B-0.000 F300
G1 X49.732 Z-117.168 B-0.000 F300
G1 X49.732 Z-117.918 B-0.000 F300
G1 X49.732 Z-118.668 B-0.000 F300
G1 X49.732 Z-119.418 B-0.000 F300
G1 X49.732 Z-120.168 B-0.000 F300
G1 X49.732 Z-120.918 B-0.000 F300
G1 X49.732 Z-121.668 B-0.000 F300
G1 X49.732 Z-122.418 B-0.000 F300
G1 X49.732 Z-123.168 B-0.000 F300
G1 X49.732 Z-123.918 B-0.000 F300
G1 X49.732 Z-124.668 B-0.000 F300
G1 X49.732 Z-125.418 B-0.000 F300
G1 X49.732 Z-126.168 B-0.000 F300
G1 X49.732 Z-126.918 B-0.000 F300
G1 X49.732 Z-127.668 B-0.000 F300
G1 X49.732 Z-128.418 B-0.000 F300
G1 X49.732 Z-129.168 B-0.000 F300
G1 X49.732 Z-129.918 B-0.000 F300
G1 X49.732 Z-130.668 B-0.000 F300
G1 X49.732 Z-131.418 B-0.000 F300
G1 X49.732 Z-132.168 B-0.000 F300
G1 X49.732 Z-132.918 B-0.000 F300
G1 X49.732 Z-133.668 B-0.000 F300
G1 X49.732 Z-134.418 B-0.000 F300
G1 X49.732 Z-135.168 B-0.000 F300
G1 X49.732 Z-135.918 B-0.000 F300
G1 X49.732 Z-136.668 B-0.000 F300
G1 X49.732 Z-137.418 B-0.000 F300
G1 X49.732 Z-138.168 B-0.000 F300
G1 X49.732 Z-138.918 B-0.000 F300
G1 X49.732 Z-139.668 B-0.000 F300
G1 X49.732 Z-140.418 B-0.000 F300
G1 X49.732 Z-141.168 B-0.000 F300
G1 X49.732 Z-141.918 B-0.000 F300
G1 X49.732 Z-142.668 B-0.000 F300
G1 X49.732 Z-143.418 B-0.000 F300
G1 X43.889 Z-150.831 B-2.720 F300
G1 X44.014 Z-150.831 B-2.720 F300
G1 X44.139 Z-150.831 B-2.720 F300
G1 X44.264 Z-150.831 B-2.720 F300
G1 X44.389 Z-150.831 B-2.720 F300
G1 X44.514 Z-150.831 B-2.720 F300
G1 X44.639 Z-150.831 B-2.720 F300
G1 X44.764 Z-150.831 B-2.720 F300
G1 X44.889 Z-150.831 B-2.720 F300
G1 X45.014 Z-150.831 B-2.720 F300
G1 X45.139 Z-150.831 B-2.720 F300
G1 X45.264 Z-150.831 B-2.720 F300
G1 X45.389 Z-150.831 B-2.720 F300
G1 X45.514 Z-150.831 B-2.720 F300
G1 X45.639 Z-150.831 B-2.720 F300
G1 X45.764 Z-150.831 B-2.720 F300
G1 X45.889 Z-150.831 B-2.720 F300
G1 X46.014 Z-150.831 B-2.720 F300
G1 X46.139 Z-150.831 B-2.720 F300
G1 X46.264 Z-150.831 B-2.720 F300
G1 X46.389 Z-150.831 B-2.720 F300
G1 X46.514 Z-150.831 B-2.720 F300
G1 X46.639 Z-150.831 B-2.720 F300
G1 X46.764 Z-150.831 B-2.720 F300
G1 X46.889 Z-150.831 B-2.720 F300
G1 X47.014 Z-150.831 B-2.720 F300
G1 X47.139 Z-150.831 B-2.720 F300
G1 X47.264 Z-150.831 B-2.720 F300
G1 X47.389 Z-150.831 B-2.720 F300
G1 X47.514 Z-150.831 B-2.720 F300
G1 X47.639 Z-150.831 B-2.720 F300
G1 X47.764 Z-150.831 B-2.720 F300
G1 X47.889 Z-150.831 B-2.720 F300
G1 X48.014 Z-150.831 B-2.720 F300
G1 X48.139 Z-150.831 B-2.720 F300
G1 X48.264 Z-150.831 B-2.720 F300
G1 X48.389 Z-150.831 B-2.720 F300
G1 X48.514 Z-150.831 B-2.720 F300
G1 X48.639 Z-150.831 B-2.720 F300
G1 X48.764 Z-150.831 B-2.720 F300
G1 C180.000 F3000
G1 X55.268 Z-144.168 B-0.000 F300
G1 X55.268 Z-143.418 B-0.000 F300
G1 X55.268 Z-142.668 B-0.000 F300
G1 X55.268 Z-141.918 B-0.000 F300
G1 X55.268 Z-141.168 B-0.000 F300
G1 X55.268 Z-140.418 B-0.000 F300
G1 X55.268 Z-139.668 B-0.000 F300
G1 X55.268 Z-138.918 B-0.000 F300
G1 X55.268 Z-138.168 B-0.000 F300
G1 X55.268 Z-137.418 B-0.000 F300
G1 X55.268 Z-136.668 B-0.000 F300
G1 X55.268 Z-135.918 B-0.000 F300
G1 X55.268 Z-135.168 B-0.000 F300
G1 X55.268 Z-134.418 B-0.000 F300
G1 X55.268 Z-133.668 B-0.000 F300
G1 X55.268 Z-132.918 B-0.000 F300
G1 X55.268 Z-132.168 B-0.000 F300
G1 X55.268 Z-131.418 B-0.000 F300
G1 X55.268 Z-130.668 B-0.000 F300
G1 X55.268 Z-129.918 B-0.000 F300
G1 X55.268 Z-129.168 B-0.000 F300
G1 X55.268 Z-128.418 B-0.000 F300
G1 X55.268 Z-127.668 B-0.000 F300
G1 X55.268 Z-126.918 B-0.000 F300
G1 X55.268 Z-126.168 B-0.000 F300
G1 X55.268 Z-125.418 B-0.000 F300
G1 X55.268 Z-124.668 B-0.000 F300
G1 X55.268 Z-123.918 B-0.000 F300
G1 X55.268 Z-123.168 B-0.000 F300
G1 X55.268 Z-122.418 B-0.000 F300
G1 X55.268 Z-121.668 B-0.000 F300
G1 X55.268 Z-120.918 B-0.000 F300
G1 X55.268 Z-120.168 B-0.000 F300
G1 X55.268 Z-119.418 B-0.000 F300
G1 X55.268 Z-118.668 B-0.000 F300
G1 X55.268 Z-117.918 B-0.000 F300
G1 X55.268 Z-117.168 B-0.000 F300
G1 X55.268 Z-116.418 B-0.000 F300
G1 X55.268 Z-115.668 B-0.000 F300
G1 X55.268 Z-114.918 B-0.000 F300
G1 X55.268 Z-144.168 B-0.000 F300
G1 X55.268 Z-143.418 B-0.000 F300
G1 X55.268 Z-142.668 B-0.000 F300
G1 X55.268 Z-141.918 B-0.000 F300
G1 X55.268 Z-141.168 B-0.000 F300
G1 X55.268 Z-140.418 B-0.000 F300
G1 X55.268 Z-139.668 B-0.000 F300
G1 X55.268 Z-138.918 B-0.000 F300
G1 X55.268 Z-138.168 B-0.000 F300
G1 X55.268 Z-137.418 B-0.000 F300
G1 X55.268 Z-136.668 B-0.000 F300
G1 X55.268 Z-135.918 B-0.000 F300
G1 X55.268 Z-135.168 B-0.000 F300
G1 X55.268 Z-134.418 B-0.000 F300
G1 X55.268 Z-133.668 B-0.000 F300
G1 X55.268 Z-132.918 B-0.000 F300
G1 X55.268 Z-132.168 B-0.000 F300
G1 X55.268 Z-131.418 B-0.000 F300
G1 X55.268 Z-130.668 B-0.000 F300
G1 X55.268 Z-129.918 B-0.000 F300
G1 X55.268 Z-129.168 B-0.000 F300
G1 X55.268 Z-128.418 B-0.000 F300
G1 X55.268 Z-127.668 B-0.000 F300
G1 X55.268 Z-126.918 B-0.000 F300
G1 X55.268 Z-126.168 B-0.000 F300
G1 X55.268 Z-125.418 B-0.000 F300
G1 X55.268 Z-124.668 B-0.000 F300
G1 X55.268 Z-123.918 B-0.000 F300
G1 X55.268 Z-123.168 B-0.000 F300
G1 X55.268 Z-122.418 B-0.000 F300
G1 X55.268 Z-121.668 B-0.000 F300
G1 X55.268 Z-120.918 B-0.000 F300
G1 X55.268 Z-120.168 B-0.000 F300
G1 X55.268 Z-119.418 B-0.000 F300
G1 X55.268 Z-118.668 B-0.000 F300
G1 X55.268 Z-117.918 B-0.000 F300
G1 X55.268 Z-117.168 B-0.000 F300
G1 X55.268 Z-116.418 B-0.000 F300
G1 X55.268 Z-115.668 B-0.000 F300
G1 X55.268 Z-114.918 B-0.000 F300
G1 C0.000 F3000
G1 X48.889 Z-120.831 B-2.720 F300
G1 X49.014 Z-120.831 B-2.720 F300
G1 X49.139 Z-120.831 B-2.720 F300
G1 X49.264 Z-120.831 B-2.720 F300
G1 X49.389 Z-120.831 B-2.720 F300
G1 X49.514 Z-120.831 B-2.720 F300
G1 X49.639 Z-120.831 B-2.720 F300
G1 X49.764 Z-120.831 B-2.720 F300
G1 X49.889 Z-120.831 B-2.720 F300
G1 X50.014 Z-120.831 B-2.720 F300
G1 X50.139 Z-120.831 B-2.720 F300
G1 X50.264 Z-120.831 B-2.720 F300
G1 X50.389 Z-120.831 B-2.720 F300
G1 X50.514 Z-120.831 B-2.720 F300
G1 X50.639 Z-120.831 B-2.720 F300
G1 X50.764 Z-120.831 B-2.720 F300
G1 X50.889 Z-120.831 B-2.720 F300
G1 X51.014 Z-120.831 B-2.720 F300
G1 X51.139 Z-120.831 B-2.720 F300
G1 X51.264 Z-120.831 B-2.720 F300
G1 X51.389 Z-120.831 B-2.720 F300
G1 X51.514 Z-120.831 B-2.720 F300
G1 X51.639 Z-120.831 B-2.720 F300
G1 X51.764 Z-120.831 B-2.720 F300
G1 X51.889 Z-120.831 B-2.720 F300
G1 X52.014 Z-120.831 B-2.720 F300
G1 X52.139 Z-120.831 B-2.720 F300
G1 X52.264 Z-120.831 B-2.720 F300
G1 X52.389 Z-120.831 B-2.720 F300
G1 X52.514 Z-120.831 B-2.720 F300
G1 X52.639 Z-120.831 B-2.720 F300
G1 X52.764 Z-120.831 B-2.720 F300
G1 X52.889 Z-120.831 B-2.720 F300
G1 X53.014 Z-120.831 B-2.720 F300
G1 X53.139 Z-120.831 B-2.720 F300
G1 X53.264 Z-120.831 B-2.720 F300
G1 X53.389 Z-120.831 B-2.720 F300
G1 X53.514 Z-120.831 B-2.720 F300
G1 X53.639 Z-120.831 B-2.720 F300
G1 X53.764 Z-120.831 B-2.720 F300
G1 X59.732 Z-114.168 B-0.000 F300
G1 X59.732 Z-114.918 B-0.000 F300
G1 X59.732 Z-115.668 B-0.000 F300
G1 X59.732 Z-116.418 B-0.000 F300
G1 X59.732 Z-117.168 B-0.000 F300
G1 X59.732 Z-117.918 B-0.000 F300
G1 X59.732 Z-118.668 B-0.000 F300
G1 X59.732 Z-119.418 B-0.000 F300
G1 X59.732 Z-120.168 B-0.000 F300
G1 X59.732 Z-120.918 B-0.000 F300
G1 X59.732 Z-121.668 B-0.000 F300
G1 X59.732 Z-122.418 B-0.000 F300
G1 X59.732 Z-123.168 B-0.000 F300
G1 X59.732 Z-123.918 B-0.000 F300
G1 X59.732 Z-124.668 B-0.000 F300
G1 X59.732 Z-125.418 B-0.000 F300
G1 X59.732 Z-126.168 B-0.000 F300
G1 X59.732 Z-126.918 B-0.000 F300
G1 X59.732 Z-127.668 B-0.000 F300
G1 X59.732 Z-128.418 B-0.000 F300
G1 X59.732 Z-129.168 B-0.000 F300
G1 X59.732 Z-129.918 B-0.000 F300
G1 X59.732 Z-130.668 B-0.000 F300
G1 X59.732 Z-131.418 B-0.000 F300
G1 X59.732 Z-132.168 B-0.000 F300
G1 X59.732 Z-132.918 B-0.000 F300
G1 X59.732 Z-133.668 B-0.000 F300
G1 X59.732 Z-134.418 B-0.000 F300
G1 X59.732 Z-135.168 B-0.000 F300
G1 X59.732 Z-135.918 B-0.000 F300
G1 X59.732 Z-136.668 B-0.000 F300
G1 X59.732 Z-137.418 B-0.000 F300
G1 X59.732 Z-138.168 B-0.000 F300
G1 X59.732 Z-138.918 B-0.000 F300
G1 X59.732 Z-139.668 B-0.000 F300
G1 X59.732 Z-140.418 B-0.000 F300
G1 X59.732 Z-141.168 B-0.000 F300
G1 X59.732 Z-141.918 B-0.000 F300
G1 X59.732 Z-142.668 B-0.000 F300
G1 X59.732 Z-143.418 B-0.000 F300
G1 X59.732 Z-114.168 B-0.000 F300
G1 X59.732 Z-114.918 B-0.000 F300
G1 X59.732 Z-115.668 B-0.000 F300
G1 X59.732 Z-116.418 B-0.000 F300
G1 X59.732 Z-117.168 B-0.000 F300
G1 X59.732 Z-117.918 B-0.000 F300
G1 X59.732 Z-118.668 B-0.000 F300
G1 X59.732 Z-119.418 B-0.000 F300
G1 X59.732 Z-120.168 B-0.000 F300
G1 X59.732 Z-120.918 B-0.000 F300
G1 X59.732 Z-121.668 B-0.000 F300
G1 X59.732 Z-122.418 B-0.000 F300
G1 X59.732 Z-123.168 B-0.000 F300
G1 X59.732 Z-123.918 B-0.000 F300
G1 X59.732 Z-124.668 B-0.000 F300
G1 X59.732 Z-125.418 B-0.000 F300
G1 X59.732 Z-126.168 B-0.000 F300
G1 X59.732 Z-126.918 B-0.000 F300
G1 X59.732 Z-127.668 B-0.000 F300
G1 X59.732 Z-128.418 B-0.000 F300
G1 X59.732 Z-129.168 B-0.000 F300
G1 X59.732 Z-129.918 B-0.000 F300
G1 X59.732 Z-130.668 B-0.000 F300
G1 X59.732 Z-131.418 B-0.000 F300
G1 X59.732 Z-132.168 B-0.000 F300
G1 X59.732 Z-132.918 B-0.000 F300
G1 X59.732 Z-133.668 B-0.000 F300
G1 X59.732 Z-134.418 B-0.000 F300
G1 X59.732 Z-135.168 B-0.000 F300
G1 X59.732 Z-135.918 B-0.000 F300
G1 X59.732 Z-136.668 B-0.000 F300
G1 X59.732 Z-137.418 B-0.000 F300
G1 X59.732 Z-138.168 B-0.000 F300
G1 X59.732 Z-138.918 B-0.000 F300
G1 X59.732 Z-139.668 B-0.000 F300
G1 X59.732 Z-140.418 B-0.000 F300
G1 X59.732 Z-141.168 B-0.000 F300
G1 X59.732 Z-141.918 B-0.000 F300
G1 X59.732 Z-142.668 B-0.000 F300
G1 X59.732 Z-143.418 B-0.000 F300
G1 X53.889 Z-150.831 B-2.720 F300
G1 X54.014 Z-150.831 B-2.720 F300
G1 X54.139 Z-150.831 B-2.720 F300
G1 X54.264 Z-150.831 B-2.720 F300
G1 X54.389 Z-150.831 B-2.720 F300
G1 X54.514 Z-150.831 B-2.720 F300
G1 X54.639 Z-150.831 B-2.720 F300
G1 X54.764 Z-150.831 B-2.720 F300
G1 X54.889 Z-150.831 B-2.720 F300
G1 X55.014 Z-150.831 B-2.720 F300
G1 X55.139 Z-150.831 B-2.720 F300
G1 X55.264 Z-150.831 B-2.720 F300
G1 X55.389 Z-150.831 B-2.720 F300
G1 X55.514 Z-150.831 B-2.720 F300
G1 X55.639 Z-150.831 B-2.720 F300
G1 X55.764 Z-150.831 B-2.720 F300
G1 X55.889 Z-150.831 B-2.720 F300
G1 X56.014 Z-150.831 B-2.720 F300
G1 X56.139 Z-150.831 B-2.720 F300
G1 X56.264 Z-150.831 B-2.720 F300
G1 X56.389 Z-150.831 B-2.720 F300
G1 X56.514 Z-150.831 B-2.720 F300
G1 X56.639 Z-150.831 B-2.720 F300
G1 X56.764 Z-150.831 B-2.720 F300
G1 X56.889 Z-150.831 B-2.720 F300
G1 X57.014 Z-150.831 B-2.720 F300
G1 X57.139 Z-150.831 B-2.720 F300
G1 X57.264 Z-150.831 B-2.720 F300
G1 X57.389 Z-150.831 B-2.720 F300
G1 X57.514 Z-150.831 B-2.720 F300
G1 X57.639 Z-150.831 B-2.720 F300
G1 X57.764 Z-150.831 B-2.720 F300
G1 X57.889 Z-150.831 B-2.720 F300
G1 X58.014 Z-150.831 B-2.720 F300
G1 X58.139 Z-150.831 B-2.720 F300
G1 X58.264 Z-150.831 B-2.720 F300
G1 X58.389 Z-150.831 B-2.720 F300
G1 X58.514 Z-150.831 B-2.720 F300
G1 X58.639 Z-150.831 B-2.720 F300
G1 X58.764 Z-150.831 B-2.720 F300
G1 C180.000 F3000
G1 X65.268 Z-144.168 B-0.000 F300
G1 X65.268 Z-143.418 B-0.000 F300
G1 X65.268 Z-142.668 B-0.000 F300
G1 X65.268 Z-141.918 B-0.000 F300
G1 X65.268 Z-141.168 B-0.000 F300
G1 X65.268 Z-140.418 B-0.000 F300
G1 X65.268 Z-139.668 B-0.000 F300
G1 X65.268 Z-138.918 B-0.000 F300
G1 X65.268 Z-138.168 B-0.000 F300
G1 X65.268 Z-137.418 B-0.000 F300
G1 X65.268 Z-136.668 B-0.000 F300
G1 X65.268 Z-135.918 B-0.000 F300
G1 X65.268 Z-135.168 B-0.000 F300
G1 X65.268 Z-134.418 B-0.000 F300
G1 X65.268 Z-133.668 B-0.000 F300
G1 X65.268 Z-132.918 B-0.000 F300
G1 X65.268 Z-132.168 B-0.000 F300
G1 X65.268 Z-131.418 B-0.000 F300
G1 X65.268 Z-130.668 B-0.000 F300
G1 X65.268 Z-129.918 B-0.000 F300
G1 X65.268 Z-129.168 B-0.000 F300
G1 X65.268 Z-128.418 B-0.000 F300
G1 X65.268 Z-127.668 B-0.000 F300
G1 X65.268 Z-126.918 B-0.000 F300
G1 X65.268 Z-126.168 B-0.000 F300
G1 X65.268 Z-125.418 B-0.000 F300
G1 X65.268 Z-124.668 B-0.000 F300
G1 X65.268 Z-123.918 B-0.000 F300
G1 X65.268 Z-123.168 B-0.000 F300
G1 X65.268 Z-122.418 B-0.000 F300
G1 X65.268 Z-121.668 B-0.000 F300
G1 X65.268 Z-120.918 B-0.000 F300
G1 X65.268 Z-120.168 B-0.000 F300
G1 X65.268 Z-119.418 B-0.000 F300
G1 X65.268 Z-118.668 B-0.000 F300
G1 X65.268 Z-117.918 B-0.000 F300
G1 X65.268 Z-117.168 B-0.000 F300
G1 X65.268 Z-116.418 B-0.000 F300
G1 X65.268 Z-115.668 B-0.000 F300
G1 X65.268 Z-114.918 B-0.000 F300
G1 X65.268 Z-144.168 B-0.000 F300
G1 X65.268 Z-143.418 B-0.000 F300
G1 X65.268 Z-142.668 B-0.000 F300
G1 X65.268 Z-141.918 B-0.000 F300
G1 X65.268 Z-141.168 B-0.000 F300
G1 X65.268 Z-140.418 B-0.000 F300
G1 X65.268 Z-139.668 B-0.000 F300
G1 X65.268 Z-138.918 B-0.000 F300
G1 X65.268 Z-138.168 B-0.000 F300
G1 X65.268 Z-137.418 B-0.000 F300
G1 X65.268 Z-136.668 B-0.000 F300
G1 X65.268 Z-135.918 B-0.000 F300
G1 X65.268 Z-135.168 B-0.000 F300
G1 X65.268 Z-134.418 B-0.000 F300
G1 X65.268 Z-133.668 B-0.000 F300
G1 X65.268 Z-132.918 B-0.000 F300
G1 X65.268 Z-132.168 B-0.000 F300
G1 X65.268 Z-131.418 B-0.000 F300
G1 X65.268 Z-130.668 B-0.000 F300
G1 X65.268 Z-129.918 B-0.000 F300
G1 X65.268 Z-129.168 B-0.000 F300
G1 X65.268 Z-128.418 B-0.000 F300
G1 X65.268 Z-127.668 B-0.000 F300
G1 X65.268 Z-126.918 B-0.000 F300
G1 X65.268 Z-126.168 B-0.000 F300
G1 X65.268 Z-125.418 B-0.000 F300
G1 X65.268 Z-124.668 B-0.000 F300
G1 X65.268 Z-123.918 B-0.000 F300
G1 X65.268 Z-123.168 B-0.000 F300
G1 X65.268 Z-122.418 B-0.000 F300
G1 X65.268 Z-121.668 B-0.000 F300
G1 X65.268 Z-120.918 B-0.000 F300
G1 X65.268 Z-120.168 B-0.000 F300
G1 X65.268 Z-119.418 B-0.000 F300
G1 X65.268 Z-118.668 B-0.000 F300
G1 X65.268 Z-117.918 B-0.000 F300
G1 X65.268 Z-117.168 B-0.000 F300
G1 X65.268 Z-116.418 B-0.000 F300
G1 X65.268 Z-115.668 B-0.000 F300
G1 X65.268 Z-114.918 B-0.000 F300
G1 C0.000 F3000
G1 X58.889 Z-120.831 B-2.720 F300
G1 X59.014 Z-120.831 B-2.720 F300
G1 X59.139 Z-120.831 B-2.720 F300
G1 X59.264 Z-120.831 B-2.720 F300
G1 X59.389 Z-120.831 B-2.720 F300
G1 X59.514 Z-120.831 B-2.720 F300
G1 X59.639 Z-120.831 B-2.720 F300
G1 X59.764 Z-120.831 B-2.720 F300
G1 X59.889 Z-120.831 B-2.720 F300
G1 X60.014 Z-120.831 B-2.720 F300
G1 X60.139 Z-120.831 B-2.720 F300
G1 X60.264 Z-120.831 B-2.720 F300
G1 X60.389 Z-120.831 B-2.720 F300
