; generated by star_cppr_from_calibration.py
; axes: z→Z, pull→B, rot→C
; inverse mode: |x|->B, sign(x)->C(0/180), z->Z_stage using z(B)
; star center target: X=0.000, Z=-130.000
; B clamp range: [-5.200, -0.200]
; calibrated r range: [17.144, 22.203] mm
G90
G1 C0.000 F3000
G1 Z-110.316 B-0.200 F300
G1 Z-109.952 B-0.200 F300
G1 Z-109.589 B-0.200 F300
G1 Z-109.225 B-0.200 F300
G1 Z-108.861 B-0.200 F300
G1 Z-108.498 B-0.200 F300
G1 Z-108.134 B-0.200 F300
G1 Z-107.770 B-0.200 F300
G1 Z-107.406 B-0.200 F300
G1 Z-107.043 B-0.200 F300
G1 Z-106.679 B-0.200 F300
G1 Z-106.315 B-0.200 F300
G1 Z-105.952 B-0.200 F300
G1 Z-105.588 B-0.200 F300
G1 Z-105.224 B-0.200 F300
G1 Z-104.861 B-0.200 F300
G1 Z-104.497 B-0.200 F300
G1 Z-104.133 B-0.200 F300
G1 Z-103.770 B-0.200 F300
G1 Z-103.406 B-0.200 F300
G1 Z-103.406 B-0.200 F300
G1 C180.000 F3000
G1 Z-103.770 B-0.200 F300
G1 Z-104.133 B-0.200 F300
G1 Z-104.497 B-0.200 F300
G1 Z-104.861 B-0.200 F300
G1 Z-105.224 B-0.200 F300
G1 Z-105.588 B-0.200 F300
G1 Z-105.952 B-0.200 F300
G1 Z-106.315 B-0.200 F300
G1 Z-106.679 B-0.200 F300
G1 Z-107.043 B-0.200 F300
G1 Z-107.406 B-0.200 F300
G1 Z-107.770 B-0.200 F300
G1 Z-108.134 B-0.200 F300
G1 Z-108.498 B-0.200 F300
G1 Z-108.861 B-0.200 F300
G1 Z-109.225 B-0.200 F300
G1 Z-109.589 B-0.200 F300
G1 Z-109.952 B-0.200 F300
G1 Z-110.316 B-0.200 F300
G1 Z-110.316 B-0.200 F300
G1 Z-110.316 B-0.200 F300
G1 Z-110.316 B-0.200 F300
G1 Z-110.316 B-0.200 F300
G1 Z-110.316 B-0.200 F300
G1 Z-110.316 B-0.200 F300
G1 Z-110.316 B-0.200 F300
G1 Z-110.316 B-0.200 F300
G1 Z-110.316 B-0.200 F300
G1 Z-110.316 B-0.200 F300
G1 Z-110.316 B-0.200 F300
G1 Z-110.316 B-0.200 F300
G1 Z-110.316 B-0.200 F300
G1 Z-110.316 B-0.200 F300
G1 Z-110.316 B-0.200 F300
G1 Z-110.316 B-0.200 F300
G1 Z-110.316 B-0.200 F300
G1 Z-110.316 B-0.200 F300
G1 Z-110.316 B-0.200 F300
G1 Z-110.316 B-0.200 F300
G1 Z-110.316 B-0.200 F300
G1 Z-110.541 B-0.200 F300
G1 Z-110.765 B-0.200 F300
G1 Z-110.990 B-0.200 F300
G1 Z-111.215 B-0.200 F300
G1 Z-111.440 B-0.200 F300
G1 Z-111.664 B-0.200 F300
G1 Z-111.889 B-0.200 F300
G1 Z-112.114 B-0.200 F300
G1 Z-112.339 B-0.200 F300
G1 Z-112.564 B-0.200 F300
G1 Z-112.788 B-0.200 F300
G1 Z-113.013 B-0.200 F300
G1 Z-113.238 B-0.200 F300
G1 Z-113.463 B-0.200 F300
G1 Z-113.687 B-0.200 F300
G1 Z-113.912 B-0.200 F300
G1 Z-114.137 B-0.200 F300
G1 Z-114.362 B-0.200 F300
G1 Z-114.586 B-0.200 F300
G1 Z-114.586 B-0.200 F300
G1 Z-114.950 B-0.200 F300
G1 Z-115.314 B-0.200 F300
G1 Z-115.677 B-0.200 F300
G1 Z-116.041 B-0.200 F300
G1 Z-116.405 B-0.200 F300
G1 Z-116.768 B-0.200 F300
G1 Z-117.132 B-0.200 F300
G1 Z-117.496 B-0.200 F300
G1 Z-117.859 B-0.200 F300
G1 Z-118.223 B-0.200 F300
G1 Z-118.587 B-0.200 F300
G1 Z-118.950 B-0.200 F300
G1 Z-119.314 B-0.200 F300
G1 Z-119.678 B-0.200 F300
G1 Z-120.042 B-0.200 F300
G1 Z-120.405 B-0.200 F300
G1 Z-120.769 B-0.200 F300
G1 Z-121.133 B-0.200 F300
G1 Z-121.496 B-0.200 F300
G1 Z-121.496 B-0.200 F300
G1 Z-121.271 B-0.200 F300
G1 Z-121.047 B-0.200 F300
G1 Z-120.822 B-0.200 F300
G1 Z-120.597 B-0.200 F300
G1 Z-120.372 B-0.200 F300
G1 Z-120.148 B-0.200 F300
G1 Z-119.923 B-0.200 F300
G1 Z-119.698 B-0.200 F300
G1 Z-119.473 B-0.200 F300
G1 Z-119.249 B-0.200 F300
G1 Z-119.024 B-0.200 F300
G1 Z-118.799 B-0.200 F300
G1 Z-118.574 B-0.200 F300
G1 Z-118.350 B-0.200 F300
G1 Z-118.125 B-0.200 F300
G1 Z-117.900 B-0.200 F300
G1 Z-117.675 B-0.200 F300
G1 Z-117.450 B-0.200 F300
G1 C0.000 F3000
G1 Z-117.226 B-0.200 F300
G1 C180.000 F3000
G1 Z-117.226 B-0.200 F300
G1 C0.000 F3000
G1 Z-117.450 B-0.200 F300
G1 Z-117.675 B-0.200 F300
G1 Z-117.900 B-0.200 F300
G1 Z-118.125 B-0.200 F300
G1 Z-118.350 B-0.200 F300
G1 Z-118.574 B-0.200 F300
G1 Z-118.799 B-0.200 F300
G1 Z-119.024 B-0.200 F300
G1 Z-119.249 B-0.200 F300
G1 Z-119.473 B-0.200 F300
G1 Z-119.698 B-0.200 F300
G1 Z-119.923 B-0.200 F300
G1 Z-120.148 B-0.200 F300
G1 Z-120.372 B-0.200 F300
G1 Z-120.597 B-0.200 F300
G1 Z-120.822 B-0.200 F300
G1 Z-121.047 B-0.200 F300
G1 Z-121.271 B-0.200 F300
G1 Z-121.496 B-0.200 F300
G1 Z-121.496 B-0.200 F300
G1 Z-121.133 B-0.200 F300
G1 Z-120.769 B-0.200 F300
G1 Z-120.405 B-0.200 F300
G1 Z-120.042 B-0.200 F300
G1 Z-119.678 B-0.200 F300
G1 Z-119.314 B-0.200 F300
G1 Z-118.950 B-0.200 F300
G1 Z-118.587 B-0.200 F300
G1 Z-118.223 B-0.200 F300
G1 Z-117.859 B-0.200 F300
G1 Z-117.496 B-0.200 F300
G1 Z-117.132 B-0.200 F300
G1 Z-116.768 B-0.200 F300
G1 Z-116.405 B-0.200 F300
G1 Z-116.041 B-0.200 F300
G1 Z-115.677 B-0.200 F300
G1 Z-115.314 B-0.200 F300
G1 Z-114.950 B-0.200 F300
G1 Z-114.586 B-0.200 F300
G1 Z-114.586 B-0.200 F300
G1 Z-114.362 B-0.200 F300
G1 Z-114.137 B-0.200 F300
G1 Z-113.912 B-0.200 F300
G1 Z-113.687 B-0.200 F300
G1 Z-113.463 B-0.200 F300
G1 Z-113.238 B-0.200 F300
G1 Z-113.013 B-0.200 F300
G1 Z-112.788 B-0.200 F300
G1 Z-112.564 B-0.200 F300
G1 Z-112.339 B-0.200 F300
G1 Z-112.114 B-0.200 F300
G1 Z-111.889 B-0.200 F300
G1 Z-111.664 B-0.200 F300
G1 Z-111.440 B-0.200 F300
G1 Z-111.215 B-0.200 F300
G1 Z-110.990 B-0.200 F300
G1 Z-110.765 B-0.200 F300
G1 Z-110.541 B-0.200 F300
G1 Z-110.316 B-0.200 F300
G1 Z-110.316 B-0.200 F300
G1 Z-110.316 B-0.200 F300
G1 Z-110.316 B-0.200 F300
G1 Z-110.316 B-0.200 F300
G1 Z-110.316 B-0.200 F300
G1 Z-110.316 B-0.200 F300
G1 Z-110.316 B-0.200 F300
G1 Z-110.316 B-0.200 F300
G1 Z-110.316 B-0.200 F300
G1 Z-110.316 B-0.200 F300
G1 Z-110.316 B-0.200 F300
G1 Z-110.316 B-0.200 F300
G1 Z-110.316 B-0.200 F300
G1 Z-110.316 B-0.200 F300
G1 Z-110.316 B-0.200 F300
G1 Z-110.316 B-0.200 F300
G1 Z-110.316 B-0.200 F300
G1 Z-110.316 B-0.200 F300
G1 Z-110.316 B-0.200 F300
G1 Z-110.316 B-0.200 F300
