; generated by star_cppr_from_calibration.py
; axes: z→Z, pull→B, rot→C
; inverse mode: |x|->B, sign(x)->C(0/180), z->Z_stage using z(B)
; star center target: X=0.000, Z=-130.000
; B clamp range: [-4.000, 0.000]
; calibrated r range: [0.114, 2.961] mm
G90
G1 C0.000 F1000
G1 Z-129.831 B-0.852 F100
G1 Z-129.569 B-0.795 F100
G1 Z-129.307 B-0.731 F100
G1 Z-129.045 B-0.659 F100
G1 Z-128.782 B-0.570 F100
G1 Z-128.519 B-0.428 F100
G1 Z-128.307 B-0.300 F100
G1 Z-128.109 B-0.300 F100
G1 Z-128.109 B-0.300 F100
G1 C180.000 F1000
G1 Z-128.307 B-0.300 F100
G1 Z-128.519 B-0.428 F100
G1 Z-128.782 B-0.570 F100
G1 Z-129.045 B-0.659 F100
G1 Z-129.307 B-0.731 F100
G1 Z-129.569 B-0.795 F100
G1 Z-129.831 B-0.852 F100
G1 Z-129.831 B-0.852 F100
G1 Z-130.039 B-1.013 F100
G1 Z-130.247 B-1.153 F100
G1 Z-130.455 B-1.283 F100
G1 Z-130.662 B-1.406 F100
G1 Z-130.870 B-1.526 F100
G1 Z-131.077 B-1.646 F100
G1 Z-131.284 B-1.767 F100
G1 Z-131.284 B-1.767 F100
G1 Z-131.239 B-1.669 F100
G1 Z-131.193 B-1.572 F100
G1 Z-131.147 B-1.475 F100
G1 Z-131.101 B-1.377 F100
G1 Z-131.055 B-1.277 F100
G1 Z-131.009 B-1.173 F100
G1 Z-130.963 B-1.062 F100
G1 Z-130.963 B-1.062 F100
G1 Z-131.225 B-1.105 F100
G1 Z-131.486 B-1.147 F100
G1 Z-131.748 B-1.188 F100
G1 Z-132.010 B-1.228 F100
G1 Z-132.271 B-1.268 F100
G1 Z-132.533 B-1.306 F100
G1 Z-132.794 B-1.345 F100
G1 Z-132.794 B-1.345 F100
G1 Z-132.504 B-1.243 F100
G1 Z-132.214 B-1.137 F100
G1 Z-131.924 B-1.024 F100
G1 Z-131.634 B-0.897 F100
G1 Z-131.343 B-0.747 F100
G1 Z-131.051 B-0.527 F100
G1 C0.000 F1000
G1 Z-130.873 B-0.300 F100
G1 C180.000 F1000
G1 Z-130.873 B-0.300 F100
G1 C0.000 F1000
G1 Z-131.051 B-0.527 F100
G1 Z-131.343 B-0.747 F100
G1 Z-131.634 B-0.897 F100
G1 Z-131.924 B-1.024 F100
G1 Z-132.214 B-1.137 F100
G1 Z-132.504 B-1.243 F100
G1 Z-132.794 B-1.345 F100
G1 Z-132.794 B-1.345 F100
G1 Z-132.533 B-1.306 F100
G1 Z-132.271 B-1.268 F100
G1 Z-132.010 B-1.228 F100
G1 Z-131.748 B-1.188 F100
G1 Z-131.486 B-1.147 F100
G1 Z-131.225 B-1.105 F100
G1 Z-130.963 B-1.062 F100
G1 Z-130.963 B-1.062 F100
G1 Z-131.009 B-1.173 F100
G1 Z-131.055 B-1.277 F100
G1 Z-131.101 B-1.377 F100
G1 Z-131.147 B-1.475 F100
G1 Z-131.193 B-1.572 F100
G1 Z-131.239 B-1.669 F100
G1 Z-131.284 B-1.767 F100
G1 Z-131.284 B-1.767 F100
G1 Z-131.077 B-1.646 F100
G1 Z-130.870 B-1.526 F100
G1 Z-130.662 B-1.406 F100
G1 Z-130.455 B-1.283 F100
G1 Z-130.247 B-1.153 F100
G1 Z-130.039 B-1.013 F100
G1 Z-129.831 B-0.852 F100
