; generated by star_two_mirrored_halves_zb_only.py
; axes: X->X, Z->Z, B->B, C->C
; strategy: explicit right-half path (C=0), then single C=180 flip, replay mirrored half.
; X is commanded only at startup.
; star center (requested): X=65.000, Z=-110.000
; outer radius requested=18.000 mm, used=18.000 mm
; right-half points=152
; C states: C0=0.000, C180=180.000
; sampled reachable |r(B)| over calibration: [2.431, 19.550] mm
; WARNING: 27/152 right-half points clamped to min reachable |r(B)| (centerline unreachable w/o X).
G90
; --- startup (ONLY X command used here) ---
G1 C0.000 F3000
G1 X65.000 Z-127.824 B0.000 F300
; --- right half (C=0): Z/B only ---
G1 Z-127.409 B0.000 F300
G1 Z-126.994 B0.000 F300
G1 Z-126.580 B0.000 F300
G1 Z-126.165 B0.000 F300
G1 Z-125.751 B0.000 F300
G1 Z-125.336 B0.000 F300
G1 Z-124.922 B0.000 F300
G1 Z-124.507 B0.000 F300
G1 Z-124.092 B0.000 F300
G1 Z-123.678 B0.000 F300
G1 Z-123.263 B0.000 F300
G1 Z-122.849 B0.000 F300
G1 Z-122.434 B0.000 F300
G1 Z-122.019 B0.000 F300
G1 Z-121.605 B0.000 F300
G1 Z-121.190 B0.000 F300
G1 Z-120.776 B0.000 F300
G1 Z-120.361 B0.000 F300
G1 Z-119.939 B-0.012 F300
G1 Z-119.518 B-0.024 F300
G1 Z-119.099 B-0.037 F300
G1 Z-118.681 B-0.049 F300
G1 Z-118.264 B-0.062 F300
G1 Z-117.849 B-0.075 F300
G1 Z-117.434 B-0.087 F300
G1 Z-117.022 B-0.100 F300
G1 Z-116.610 B-0.113 F300
G1 Z-116.200 B-0.126 F300
G1 Z-115.792 B-0.138 F300
G1 Z-115.384 B-0.151 F300
G1 Z-115.418 B-0.194 F300
G1 Z-115.467 B-0.236 F300
G1 Z-115.531 B-0.280 F300
G1 Z-115.611 B-0.324 F300
G1 Z-115.707 B-0.368 F300
G1 Z-115.820 B-0.414 F300
G1 Z-115.951 B-0.460 F300
G1 Z-116.099 B-0.507 F300
G1 Z-116.265 B-0.554 F300
G1 Z-116.450 B-0.603 F300
G1 Z-116.655 B-0.652 F300
G1 Z-116.880 B-0.702 F300
G1 Z-117.126 B-0.754 F300
G1 Z-117.395 B-0.806 F300
G1 Z-117.686 B-0.860 F300
G1 Z-118.001 B-0.914 F300
G1 Z-118.342 B-0.970 F300
G1 Z-118.709 B-1.028 F300
G1 Z-119.105 B-1.087 F300
G1 Z-119.530 B-1.148 F300
G1 Z-119.988 B-1.211 F300
G1 Z-120.481 B-1.276 F300
G1 Z-121.010 B-1.343 F300
G1 Z-121.581 B-1.413 F300
G1 Z-122.196 B-1.486 F300
G1 Z-122.862 B-1.562 F300
G1 Z-123.583 B-1.642 F300
G1 Z-124.369 B-1.727 F300
G1 Z-125.230 B-1.817 F300
G1 Z-126.181 B-1.915 F300
G1 Z-125.148 B-1.836 F300
G1 Z-124.176 B-1.761 F300
G1 Z-123.256 B-1.690 F300
G1 Z-122.382 B-1.623 F300
G1 Z-121.549 B-1.559 F300
G1 Z-120.753 B-1.497 F300
G1 Z-119.989 B-1.437 F300
G1 Z-119.256 B-1.380 F300
G1 Z-118.551 B-1.324 F300
G1 Z-117.872 B-1.270 F300
G1 Z-117.218 B-1.217 F300
G1 Z-116.586 B-1.166 F300
G1 Z-115.975 B-1.116 F300
G1 Z-115.385 B-1.068 F300
G1 Z-114.814 B-1.020 F300
G1 Z-114.262 B-0.974 F300
G1 Z-113.727 B-0.928 F300
G1 Z-113.209 B-0.883 F300
G1 Z-112.706 B-0.839 F300
G1 Z-112.220 B-0.796 F300
G1 Z-111.748 B-0.754 F300
G1 Z-111.291 B-0.712 F300
G1 Z-110.848 B-0.672 F300
G1 Z-110.418 B-0.631 F300
G1 Z-110.001 B-0.592 F300
G1 Z-109.597 B-0.552 F300
G1 Z-109.205 B-0.514 F300
G1 Z-108.826 B-0.476 F300
G1 Z-108.458 B-0.438 F300
G1 Z-108.101 B-0.401 F300
G1 Z-107.724 B-0.415 F300
G1 Z-107.348 B-0.430 F300
G1 Z-106.973 B-0.444 F300
G1 Z-106.601 B-0.458 F300
G1 Z-106.230 B-0.472 F300
G1 Z-105.860 B-0.487 F300
G1 Z-105.493 B-0.501 F300
G1 Z-105.127 B-0.516 F300
G1 Z-104.763 B-0.531 F300
G1 Z-104.401 B-0.545 F300
G1 Z-104.040 B-0.560 F300
G1 Z-103.682 B-0.575 F300
G1 Z-103.325 B-0.590 F300
G1 Z-102.970 B-0.605 F300
G1 Z-102.617 B-0.620 F300
G1 Z-102.266 B-0.636 F300
G1 Z-101.916 B-0.651 F300
G1 Z-101.569 B-0.666 F300
G1 Z-101.224 B-0.682 F300
G1 Z-100.880 B-0.698 F300
G1 Z-100.539 B-0.713 F300
G1 Z-100.199 B-0.729 F300
G1 Z-99.862 B-0.745 F300
G1 Z-99.527 B-0.761 F300
G1 Z-99.194 B-0.777 F300
G1 Z-98.863 B-0.793 F300
G1 Z-98.534 B-0.810 F300
G1 Z-98.208 B-0.826 F300
G1 Z-97.883 B-0.843 F300
G1 Z-97.561 B-0.860 F300
G1 Z-97.580 B-0.816 F300
G1 Z-97.614 B-0.773 F300
G1 Z-97.663 B-0.732 F300
G1 Z-97.725 B-0.690 F300
G1 Z-97.802 B-0.650 F300
G1 Z-97.892 B-0.610 F300
G1 Z-97.994 B-0.570 F300
G1 Z-98.109 B-0.532 F300
G1 Z-98.237 B-0.493 F300
G1 Z-98.376 B-0.456 F300
G1 Z-98.527 B-0.418 F300
G1 Z-98.689 B-0.381 F300
G1 Z-98.862 B-0.345 F300
G1 Z-99.046 B-0.309 F300
G1 Z-99.240 B-0.274 F300
G1 Z-99.445 B-0.239 F300
G1 Z-99.660 B-0.204 F300
G1 Z-99.885 B-0.170 F300
G1 Z-100.120 B-0.136 F300
G1 Z-100.364 B-0.102 F300
G1 Z-100.617 B-0.069 F300
G1 Z-100.880 B-0.036 F300
G1 Z-101.152 B-0.004 F300
G1 Z-101.411 B0.000 F300
G1 Z-101.667 B0.000 F300
G1 Z-101.923 B0.000 F300
G1 Z-102.180 B0.000 F300
G1 Z-102.436 B0.000 F300
G1 Z-102.692 B0.000 F300
G1 Z-102.948 B0.000 F300
G1 Z-127.824 B0.000 F300
; --- single mirror flip to draw left half ---
G1 C180.000 F300
; --- left half (mirrored replay, C=180): Z/B only ---
G1 Z-127.824 B0.000 F300
G1 Z-127.409 B0.000 F300
G1 Z-126.994 B0.000 F300
G1 Z-126.580 B0.000 F300
G1 Z-126.165 B0.000 F300
G1 Z-125.751 B0.000 F300
G1 Z-125.336 B0.000 F300
G1 Z-124.922 B0.000 F300
G1 Z-124.507 B0.000 F300
G1 Z-124.092 B0.000 F300
G1 Z-123.678 B0.000 F300
G1 Z-123.263 B0.000 F300
G1 Z-122.849 B0.000 F300
G1 Z-122.434 B0.000 F300
G1 Z-122.019 B0.000 F300
G1 Z-121.605 B0.000 F300
G1 Z-121.190 B0.000 F300
G1 Z-120.776 B0.000 F300
G1 Z-120.361 B0.000 F300
G1 Z-119.939 B-0.012 F300
G1 Z-119.518 B-0.024 F300
G1 Z-119.099 B-0.037 F300
G1 Z-118.681 B-0.049 F300
G1 Z-118.264 B-0.062 F300
G1 Z-117.849 B-0.075 F300
G1 Z-117.434 B-0.087 F300
G1 Z-117.022 B-0.100 F300
G1 Z-116.610 B-0.113 F300
G1 Z-116.200 B-0.126 F300
G1 Z-115.792 B-0.138 F300
G1 Z-115.384 B-0.151 F300
G1 Z-115.418 B-0.194 F300
G1 Z-115.467 B-0.236 F300
G1 Z-115.531 B-0.280 F300
G1 Z-115.611 B-0.324 F300
G1 Z-115.707 B-0.368 F300
G1 Z-115.820 B-0.414 F300
G1 Z-115.951 B-0.460 F300
G1 Z-116.099 B-0.507 F300
G1 Z-116.265 B-0.554 F300
G1 Z-116.450 B-0.603 F300
G1 Z-116.655 B-0.652 F300
G1 Z-116.880 B-0.702 F300
G1 Z-117.126 B-0.754 F300
G1 Z-117.395 B-0.806 F300
G1 Z-117.686 B-0.860 F300
G1 Z-118.001 B-0.914 F300
G1 Z-118.342 B-0.970 F300
G1 Z-118.709 B-1.028 F300
G1 Z-119.105 B-1.087 F300
G1 Z-119.530 B-1.148 F300
G1 Z-119.988 B-1.211 F300
G1 Z-120.481 B-1.276 F300
G1 Z-121.010 B-1.343 F300
G1 Z-121.581 B-1.413 F300
G1 Z-122.196 B-1.486 F300
G1 Z-122.862 B-1.562 F300
G1 Z-123.583 B-1.642 F300
G1 Z-124.369 B-1.727 F300
G1 Z-125.230 B-1.817 F300
G1 Z-126.181 B-1.915 F300
G1 Z-125.148 B-1.836 F300
G1 Z-124.176 B-1.761 F300
G1 Z-123.256 B-1.690 F300
G1 Z-122.382 B-1.623 F300
G1 Z-121.549 B-1.559 F300
G1 Z-120.753 B-1.497 F300
G1 Z-119.989 B-1.437 F300
G1 Z-119.256 B-1.380 F300
G1 Z-118.551 B-1.324 F300
G1 Z-117.872 B-1.270 F300
G1 Z-117.218 B-1.217 F300
G1 Z-116.586 B-1.166 F300
G1 Z-115.975 B-1.116 F300
G1 Z-115.385 B-1.068 F300
G1 Z-114.814 B-1.020 F300
G1 Z-114.262 B-0.974 F300
G1 Z-113.727 B-0.928 F300
G1 Z-113.209 B-0.883 F300
G1 Z-112.706 B-0.839 F300
G1 Z-112.220 B-0.796 F300
G1 Z-111.748 B-0.754 F300
G1 Z-111.291 B-0.712 F300
G1 Z-110.848 B-0.672 F300
G1 Z-110.418 B-0.631 F300
G1 Z-110.001 B-0.592 F300
G1 Z-109.597 B-0.552 F300
G1 Z-109.205 B-0.514 F300
G1 Z-108.826 B-0.476 F300
G1 Z-108.458 B-0.438 F300
G1 Z-108.101 B-0.401 F300
G1 Z-107.724 B-0.415 F300
G1 Z-107.348 B-0.430 F300
G1 Z-106.973 B-0.444 F300
G1 Z-106.601 B-0.458 F300
G1 Z-106.230 B-0.472 F300
G1 Z-105.860 B-0.487 F300
G1 Z-105.493 B-0.501 F300
G1 Z-105.127 B-0.516 F300
G1 Z-104.763 B-0.531 F300
G1 Z-104.401 B-0.545 F300
G1 Z-104.040 B-0.560 F300
G1 Z-103.682 B-0.575 F300
G1 Z-103.325 B-0.590 F300
G1 Z-102.970 B-0.605 F300
G1 Z-102.617 B-0.620 F300
G1 Z-102.266 B-0.636 F300
G1 Z-101.916 B-0.651 F300
G1 Z-101.569 B-0.666 F300
G1 Z-101.224 B-0.682 F300
G1 Z-100.880 B-0.698 F300
G1 Z-100.539 B-0.713 F300
G1 Z-100.199 B-0.729 F300
G1 Z-99.862 B-0.745 F300
G1 Z-99.527 B-0.761 F300
G1 Z-99.194 B-0.777 F300
G1 Z-98.863 B-0.793 F300
G1 Z-98.534 B-0.810 F300
G1 Z-98.208 B-0.826 F300
G1 Z-97.883 B-0.843 F300
G1 Z-97.561 B-0.860 F300
G1 Z-97.580 B-0.816 F300
G1 Z-97.614 B-0.773 F300
G1 Z-97.663 B-0.732 F300
G1 Z-97.725 B-0.690 F300
G1 Z-97.802 B-0.650 F300
G1 Z-97.892 B-0.610 F300
G1 Z-97.994 B-0.570 F300
G1 Z-98.109 B-0.532 F300
G1 Z-98.237 B-0.493 F300
G1 Z-98.376 B-0.456 F300
G1 Z-98.527 B-0.418 F300
G1 Z-98.689 B-0.381 F300
G1 Z-98.862 B-0.345 F300
G1 Z-99.046 B-0.309 F300
G1 Z-99.240 B-0.274 F300
G1 Z-99.445 B-0.239 F300
G1 Z-99.660 B-0.204 F300
G1 Z-99.885 B-0.170 F300
G1 Z-100.120 B-0.136 F300
G1 Z-100.364 B-0.102 F300
G1 Z-100.617 B-0.069 F300
G1 Z-100.880 B-0.036 F300
G1 Z-101.152 B-0.004 F300
G1 Z-101.411 B0.000 F300
G1 Z-101.667 B0.000 F300
G1 Z-101.923 B0.000 F300
G1 Z-102.180 B0.000 F300
G1 Z-102.436 B0.000 F300
G1 Z-102.692 B0.000 F300
G1 Z-102.948 B0.000 F300
G1 Z-127.824 B0.000 F300
