; generated by star_cppr_from_calibration.py
; inner→X, outer→Y, rot→Z
; star center (ref only): X=50.000, Y=50.000
; calibrated r range: [7.357, 13.191] mm
G90
G1 X50 Y50 F600 
G1 X7.430 Y7.330 F600
G1 Z54.000 F6000
G1 X7.430 Y7.330 Z58.374 F4576
G1 X7.430 Y7.330 Z62.246 F4051
G1 X7.430 Y7.330 Z65.669 F3580
G1 X7.430 Y7.330 Z68.694 F3165
G1 X7.430 Y7.330 Z71.375 F2804
G1 X7.430 Y7.330 Z73.756 F2491
G1 X7.430 Y7.330 Z75.878 F2220
G1 X7.430 Y7.330 Z77.776 F1986
G1 X7.430 Y7.330 Z79.480 F1783
G1 X7.430 Y7.330 Z81.016 F1607
G1 X7.430 Y7.330 Z82.406 F1454
G1 X7.629 Y7.157 Z83.668 F1320
G1 X7.600 Y6.964 Z84.818 F1203
G1 X7.530 Y6.785 Z85.870 F1100
G1 X7.440 Y6.606 Z86.834 F1009
G1 X7.337 Y6.426 Z87.721 F928
G1 X7.223 Y6.243 Z88.540 F856
G1 X7.100 Y6.057 Z89.297 F792
G1 X6.970 Y5.869 Z90.000 F735
G1 X6.970 Y5.869 F400
G1 X7.070 Y5.948 Z90.703 F735
G1 X7.223 Y6.243 Z91.460 F792
G1 X7.337 Y6.426 Z92.279 F856
G1 X7.440 Y6.606 Z93.166 F928
G1 X7.530 Y6.785 Z94.130 F1009
G1 X7.600 Y6.964 Z95.182 F1100
G1 X7.629 Y7.157 Z96.332 F1203
G1 X7.430 Y7.330 Z97.594 F1320
G1 X7.430 Y7.330 Z98.984 F1454
G1 X7.430 Y7.330 Z100.520 F1607
G1 X7.430 Y7.330 Z102.224 F1783
G1 X7.430 Y7.330 Z104.122 F1986
G1 X7.430 Y7.330 Z106.244 F2220
G1 X7.430 Y7.330 Z108.625 F2491
G1 X7.430 Y7.330 Z111.306 F2804
G1 X7.430 Y7.330 Z114.331 F3165
G1 X7.430 Y7.330 Z117.754 F3580
G1 X7.430 Y7.330 Z121.626 F4051
G1 X7.430 Y7.330 Z126.000 F4576
G1 X7.430 Y7.330 Z126.000 F7100
G1 X7.430 Y7.330 Z130.374 F4576
G1 X7.430 Y7.330 Z134.246 F4051
G1 X7.430 Y7.330 Z137.669 F3580
G1 X7.430 Y7.330 Z140.694 F3165
G1 X7.430 Y7.330 Z143.375 F2804
G1 X7.430 Y7.330 Z145.756 F2491
G1 X7.430 Y7.330 Z147.878 F2220
G1 X7.430 Y7.330 Z149.776 F1986
G1 X7.430 Y7.330 Z151.480 F1783
G1 X7.430 Y7.330 Z153.016 F1607
G1 X7.430 Y7.330 Z154.406 F1454
G1 X7.629 Y7.157 Z155.668 F1320
G1 X7.600 Y6.964 Z156.818 F1203
G1 X7.530 Y6.785 Z157.870 F1100
G1 X7.440 Y6.606 Z158.834 F1009
G1 X7.337 Y6.426 Z159.721 F928
G1 X7.223 Y6.243 Z160.540 F856
G1 X7.100 Y6.057 Z161.297 F792
G1 X6.970 Y5.869 Z162.000 F735
G1 X6.970 Y5.869 F400
G1 X7.070 Y5.948 Z162.703 F735
G1 X7.223 Y6.243 Z163.460 F792
G1 X7.337 Y6.426 Z164.279 F856
G1 X7.440 Y6.606 Z165.166 F928
G1 X7.530 Y6.785 Z166.130 F1009
G1 X7.600 Y6.964 Z167.182 F1100
G1 X7.629 Y7.157 Z168.332 F1203
G1 X7.430 Y7.330 Z169.594 F1320
G1 X7.430 Y7.330 Z170.984 F1454
G1 X7.430 Y7.330 Z172.520 F1607
G1 X7.430 Y7.330 Z174.224 F1783
G1 X7.430 Y7.330 Z176.122 F1986
G1 X7.430 Y7.330 Z178.244 F2220
G1 X7.430 Y7.330 Z180.625 F2491
G1 X7.430 Y7.330 Z183.306 F2804
G1 X7.430 Y7.330 Z186.331 F3165
G1 X7.430 Y7.330 Z189.754 F3580
G1 X7.430 Y7.330 Z193.626 F4051
G1 X7.430 Y7.330 Z198.000 F4576
G1 X7.430 Y7.330 Z198.000 F7033
G1 X7.430 Y7.330 Z202.374 F4576
G1 X7.430 Y7.330 Z206.246 F4051
G1 X7.430 Y7.330 Z209.669 F3580
G1 X7.430 Y7.330 Z212.694 F3165
G1 X7.430 Y7.330 Z215.375 F2804
G1 X7.430 Y7.330 Z217.756 F2491
G1 X7.430 Y7.330 Z219.878 F2220
G1 X7.430 Y7.330 Z221.776 F1986
G1 X7.430 Y7.330 Z223.480 F1783
G1 X7.430 Y7.330 Z225.016 F1607
G1 X7.430 Y7.330 Z226.406 F1454
G1 X7.629 Y7.157 Z227.668 F1320
G1 X7.600 Y6.964 Z228.818 F1203
G1 X7.530 Y6.785 Z229.870 F1100
G1 X7.440 Y6.606 Z230.834 F1009
G1 X7.337 Y6.426 Z231.721 F928
G1 X7.223 Y6.243 Z232.540 F856
G1 X7.100 Y6.057 Z233.297 F792
G1 X6.970 Y5.869 Z234.000 F735
G1 X6.970 Y5.869 F400
G1 X7.070 Y5.948 Z234.703 F735
G1 X7.223 Y6.243 Z235.460 F792
G1 X7.337 Y6.426 Z236.279 F856
G1 X7.440 Y6.606 Z237.166 F928
G1 X7.530 Y6.785 Z238.130 F1009
G1 X7.600 Y6.964 Z239.182 F1100
G1 X7.629 Y7.157 Z240.332 F1203
G1 X7.430 Y7.330 Z241.594 F1320
G1 X7.430 Y7.330 Z242.984 F1454
G1 X7.430 Y7.330 Z244.520 F1607
G1 X7.430 Y7.330 Z246.224 F1783
G1 X7.430 Y7.330 Z248.122 F1986
G1 X7.430 Y7.330 Z250.244 F2220
G1 X7.430 Y7.330 Z252.625 F2491
G1 X7.430 Y7.330 Z255.306 F2804
G1 X7.430 Y7.330 Z258.331 F3165
G1 X7.430 Y7.330 Z261.754 F3580
G1 X7.430 Y7.330 Z265.626 F4051
G1 X7.430 Y7.330 Z270.000 F4576
G1 X7.430 Y7.330 F400
G1 X7.430 Y7.330 Z274.374 F4576
G1 X7.430 Y7.330 Z278.246 F4051
G1 X7.430 Y7.330 Z281.669 F3580
G1 X7.430 Y7.330 Z284.694 F3165
G1 X7.430 Y7.330 Z287.375 F2804
G1 X7.430 Y7.330 Z289.756 F2491
G1 X7.430 Y7.330 Z291.878 F2220
G1 X7.430 Y7.330 Z293.776 F1986
G1 X7.430 Y7.330 Z295.480 F1783
G1 X7.430 Y7.330 Z297.016 F1607
G1 X7.430 Y7.330 Z298.406 F1454
G1 X7.629 Y7.157 Z299.668 F1320
G1 X7.600 Y6.964 Z300.818 F1203
G1 X7.530 Y6.785 Z301.870 F1100
G1 X7.440 Y6.606 Z302.834 F1009
G1 X7.337 Y6.426 Z303.721 F928
G1 X7.223 Y6.243 Z304.540 F856
G1 X7.100 Y6.057 Z305.297 F792
G1 X6.970 Y5.869 Z306.000 F735
G1 X6.970 Y5.869 F400
G1 X7.070 Y5.948 Z306.703 F735
G1 X7.223 Y6.243 Z307.460 F792
G1 X7.337 Y6.426 Z308.279 F856
G1 X7.440 Y6.606 Z309.166 F928
G1 X7.530 Y6.785 Z310.130 F1009
G1 X7.600 Y6.964 Z311.182 F1100
G1 X7.629 Y7.157 Z312.332 F1203
G1 X7.430 Y7.330 Z313.594 F1320
G1 X7.430 Y7.330 Z314.984 F1454
G1 X7.430 Y7.330 Z316.520 F1607
G1 X7.430 Y7.330 Z318.224 F1783
G1 X7.430 Y7.330 Z320.122 F1986
G1 X7.430 Y7.330 Z322.244 F2220
G1 X7.430 Y7.330 Z324.625 F2491
G1 X7.430 Y7.330 Z327.306 F2804
G1 X7.430 Y7.330 Z330.331 F3165
G1 X7.430 Y7.330 Z333.754 F3580
G1 X7.430 Y7.330 Z337.626 F4051
G1 X7.430 Y7.330 Z342.000 F4576
G1 X7.430 Y7.330 F400
G1 X7.430 Y7.330 Z346.374 F4576
G1 X7.430 Y7.330 Z350.246 F4051
G1 X7.430 Y7.330 Z353.669 F3580
G1 X7.430 Y7.330 Z356.694 F3165
G1 X7.430 Y7.330 Z359.375 F2804
G1 X7.430 Y7.330 Z361.756 F2491
G1 X7.430 Y7.330 Z363.878 F2220
G1 X7.430 Y7.330 Z365.776 F1986
G1 X7.430 Y7.330 Z367.480 F1783
G1 X7.430 Y7.330 Z369.016 F1607
G1 X7.430 Y7.330 Z370.406 F1454
G1 X7.629 Y7.157 Z371.668 F1320
G1 X7.600 Y6.964 Z372.818 F1203
G1 X7.530 Y6.785 Z373.870 F1100
G1 X7.440 Y6.606 Z374.834 F1009
G1 X7.337 Y6.426 Z375.721 F928
G1 X7.223 Y6.243 Z376.540 F856
G1 X7.100 Y6.057 Z377.297 F792
G1 X6.970 Y5.869 Z378.000 F735
G1 X6.970 Y5.869 F400
G1 X7.070 Y5.948 Z378.703 F735
G1 X7.223 Y6.243 Z379.460 F792
G1 X7.337 Y6.426 Z380.279 F856
G1 X7.440 Y6.606 Z381.166 F928
G1 X7.530 Y6.785 Z382.130 F1009
G1 X7.600 Y6.964 Z383.182 F1100
G1 X7.629 Y7.157 Z384.332 F1203
G1 X7.430 Y7.330 Z385.594 F1320
G1 X7.430 Y7.330 Z386.984 F1454
G1 X7.430 Y7.330 Z388.520 F1607
G1 X7.430 Y7.330 Z390.224 F1783
G1 X7.430 Y7.330 Z392.122 F1986
G1 X7.430 Y7.330 Z394.244 F2220
G1 X7.430 Y7.330 Z396.625 F2491
G1 X7.430 Y7.330 Z399.306 F2804
G1 X7.430 Y7.330 Z402.331 F3165
G1 X7.430 Y7.330 Z405.754 F3580
G1 X7.430 Y7.330 Z409.626 F4051
G1 X7.430 Y7.330 Z414.000 F4576
