; generated by star_two_mirrored_halves_tip_priority_xoffset.py
; axes: X->X, Z->Z, B->B, C->C
; strategy: explicit right-half path (C=0), single C flip, explicit mirrored left-half path (C=180)
; priority: exact tip tracking first; X offset from nominal mirror plane allowed when needed
; model: X_tip = X_stage + sgn*r(B), Z_tip = Z_stage + z(B)
; nominal star center: X=65.000, Z=-110.000
; outer radius requested=18.000 mm, used=18.000 mm
; right-half points=152, replayed as explicit mirrored left-half path
; C states: C0=0.000, C180=180.000
; reachable |r(B)| over commanded range: [5.000, 21.781] mm
; right-half clamps: inner=49, outer=0
; left-half clamps:  inner=49, outer=0
; max |X_stage - nominal_center_x| right=5.000 mm
; max |X_stage - nominal_center_x| left =5.000 mm
G90
; --- startup ---
G1 C0.000 F2000
G1 X60.000 Z-91.935 B0.000 F200
; --- right half (C=0), tip-priority exact tracking ---
G1 X60.000 Z-116.810 B0.000 F200
G1 X60.353 Z-117.067 B0.000 F200
G1 X60.705 Z-117.323 B0.000 F200
G1 X61.058 Z-117.579 B0.000 F200
G1 X61.411 Z-117.835 B0.000 F200
G1 X61.763 Z-118.092 B0.000 F200
G1 X62.116 Z-118.348 B0.000 F200
G1 X62.469 Z-118.604 B0.000 F200
G1 X62.821 Z-118.860 B0.000 F200
G1 X63.174 Z-119.116 B0.000 F200
G1 X63.527 Z-119.373 B0.000 F200
G1 X63.879 Z-119.629 B0.000 F200
G1 X64.232 Z-119.885 B0.000 F200
G1 X64.585 Z-120.141 B0.000 F200
G1 X64.937 Z-120.398 B0.000 F200
G1 X65.000 Z-120.667 B-0.024 F200
G1 X65.000 Z-120.945 B-0.054 F200
G1 X65.000 Z-121.230 B-0.084 F200
G1 X65.000 Z-121.522 B-0.114 F200
G1 X65.000 Z-121.821 B-0.145 F200
G1 X65.000 Z-122.128 B-0.176 F200
G1 X65.000 Z-122.443 B-0.208 F200
G1 X65.000 Z-122.765 B-0.240 F200
G1 X65.000 Z-123.096 B-0.272 F200
G1 X65.000 Z-123.434 B-0.305 F200
G1 X65.000 Z-123.781 B-0.338 F200
G1 X65.000 Z-124.137 B-0.372 F200
G1 X65.000 Z-124.502 B-0.406 F200
G1 X65.000 Z-124.877 B-0.441 F200
G1 X65.000 Z-125.261 B-0.476 F200
G1 X65.000 Z-125.655 B-0.512 F200
G1 X65.000 Z-125.186 B-0.498 F200
G1 X65.000 Z-124.719 B-0.484 F200
G1 X65.000 Z-124.254 B-0.471 F200
G1 X65.000 Z-123.790 B-0.457 F200
G1 X65.000 Z-123.327 B-0.444 F200
G1 X65.000 Z-122.866 B-0.430 F200
G1 X65.000 Z-122.407 B-0.417 F200
G1 X65.000 Z-121.948 B-0.404 F200
G1 X65.000 Z-121.491 B-0.391 F200
G1 X65.000 Z-121.035 B-0.378 F200
G1 X65.000 Z-120.581 B-0.365 F200
G1 X65.000 Z-120.128 B-0.352 F200
G1 X65.000 Z-119.676 B-0.339 F200
G1 X65.000 Z-119.226 B-0.326 F200
G1 X65.000 Z-118.777 B-0.314 F200
G1 X65.000 Z-118.329 B-0.301 F200
G1 X65.000 Z-117.882 B-0.288 F200
G1 X65.000 Z-117.436 B-0.276 F200
G1 X65.000 Z-116.992 B-0.264 F200
G1 X65.000 Z-116.549 B-0.251 F200
G1 X65.000 Z-116.107 B-0.239 F200
G1 X65.000 Z-115.666 B-0.227 F200
G1 X65.000 Z-115.227 B-0.214 F200
G1 X65.000 Z-114.788 B-0.202 F200
G1 X65.000 Z-114.351 B-0.190 F200
G1 X65.000 Z-113.915 B-0.178 F200
G1 X65.000 Z-113.480 B-0.166 F200
G1 X65.000 Z-113.046 B-0.154 F200
G1 X65.000 Z-112.613 B-0.143 F200
G1 X65.000 Z-112.181 B-0.131 F200
G1 X65.000 Z-111.972 B-0.162 F200
G1 X65.000 Z-111.771 B-0.193 F200
G1 X65.000 Z-111.577 B-0.225 F200
G1 X65.000 Z-111.391 B-0.257 F200
G1 X65.000 Z-111.214 B-0.290 F200
G1 X65.000 Z-111.045 B-0.323 F200
G1 X65.000 Z-110.884 B-0.356 F200
G1 X65.000 Z-110.733 B-0.390 F200
G1 X65.000 Z-110.590 B-0.425 F200
G1 X65.000 Z-110.457 B-0.460 F200
G1 X65.000 Z-110.334 B-0.495 F200
G1 X65.000 Z-110.221 B-0.531 F200
G1 X65.000 Z-110.118 B-0.568 F200
G1 X65.000 Z-110.027 B-0.606 F200
G1 X65.000 Z-109.946 B-0.644 F200
G1 X65.000 Z-109.878 B-0.682 F200
G1 X65.000 Z-109.821 B-0.722 F200
G1 X65.000 Z-109.777 B-0.762 F200
G1 X65.000 Z-109.747 B-0.803 F200
G1 X65.000 Z-109.731 B-0.845 F200
G1 X65.000 Z-109.729 B-0.888 F200
G1 X65.000 Z-109.743 B-0.932 F200
G1 X65.000 Z-109.773 B-0.978 F200
G1 X65.000 Z-109.820 B-1.024 F200
G1 X65.000 Z-109.886 B-1.071 F200
G1 X65.000 Z-109.971 B-1.120 F200
G1 X65.000 Z-110.078 B-1.171 F200
G1 X65.000 Z-110.207 B-1.223 F200
G1 X65.000 Z-110.360 B-1.276 F200
G1 X65.000 Z-110.540 B-1.332 F200
G1 X65.000 Z-110.005 B-1.264 F200
G1 X65.000 Z-109.510 B-1.198 F200
G1 X65.000 Z-109.050 B-1.135 F200
G1 X65.000 Z-108.623 B-1.074 F200
G1 X65.000 Z-108.227 B-1.015 F200
G1 X65.000 Z-107.858 B-0.959 F200
G1 X65.000 Z-107.515 B-0.904 F200
G1 X65.000 Z-107.196 B-0.850 F200
G1 X65.000 Z-106.900 B-0.798 F200
G1 X65.000 Z-106.624 B-0.748 F200
G1 X65.000 Z-106.369 B-0.698 F200
G1 X65.000 Z-106.133 B-0.650 F200
G1 X65.000 Z-105.915 B-0.603 F200
G1 X65.000 Z-105.714 B-0.557 F200
G1 X65.000 Z-105.530 B-0.512 F200
G1 X65.000 Z-105.361 B-0.468 F200
G1 X65.000 Z-105.208 B-0.424 F200
G1 X65.000 Z-105.069 B-0.382 F200
G1 X65.000 Z-104.943 B-0.340 F200
G1 X65.000 Z-104.832 B-0.299 F200
G1 X65.000 Z-104.733 B-0.258 F200
G1 X65.000 Z-104.646 B-0.219 F200
G1 X65.000 Z-104.572 B-0.180 F200
G1 X65.000 Z-104.509 B-0.141 F200
G1 X65.000 Z-104.458 B-0.103 F200
G1 X65.000 Z-104.418 B-0.066 F200
G1 X65.000 Z-104.389 B-0.029 F200
G1 X64.913 Z-104.373 B0.000 F200
G1 X64.477 Z-104.373 B0.000 F200
G1 X64.041 Z-104.373 B0.000 F200
G1 X63.907 Z-103.958 B0.000 F200
G1 X63.772 Z-103.544 B0.000 F200
G1 X63.637 Z-103.129 B0.000 F200
G1 X63.502 Z-102.714 B0.000 F200
G1 X63.368 Z-102.300 B0.000 F200
G1 X63.233 Z-101.885 B0.000 F200
G1 X63.098 Z-101.471 B0.000 F200
G1 X62.964 Z-101.056 B0.000 F200
G1 X62.829 Z-100.641 B0.000 F200
G1 X62.694 Z-100.227 B0.000 F200
G1 X62.559 Z-99.812 B0.000 F200
G1 X62.425 Z-99.398 B0.000 F200
G1 X62.290 Z-98.983 B0.000 F200
G1 X62.155 Z-98.568 B0.000 F200
G1 X62.021 Z-98.154 B0.000 F200
G1 X61.886 Z-97.739 B0.000 F200
G1 X61.751 Z-97.325 B0.000 F200
G1 X61.617 Z-96.910 B0.000 F200
G1 X61.482 Z-96.496 B0.000 F200
G1 X61.347 Z-96.081 B0.000 F200
G1 X61.212 Z-95.666 B0.000 F200
G1 X61.078 Z-95.252 B0.000 F200
G1 X60.943 Z-94.837 B0.000 F200
G1 X60.808 Z-94.423 B0.000 F200
G1 X60.674 Z-94.008 B0.000 F200
G1 X60.539 Z-93.593 B0.000 F200
G1 X60.404 Z-93.179 B0.000 F200
G1 X60.269 Z-92.764 B0.000 F200
G1 X60.135 Z-92.350 B0.000 F200
G1 X60.000 Z-91.935 B0.000 F200
; --- single mirror flip and continue on left half ---
G1 X70.000 Z-91.935 B0.000 C180.000 F200
; --- left half (C=180), tip-priority exact tracking ---
G1 X70.000 Z-116.810 B0.000 F200
G1 X69.647 Z-117.067 B0.000 F200
G1 X69.295 Z-117.323 B0.000 F200
G1 X68.942 Z-117.579 B0.000 F200
G1 X68.589 Z-117.835 B0.000 F200
G1 X68.237 Z-118.092 B0.000 F200
G1 X67.884 Z-118.348 B0.000 F200
G1 X67.531 Z-118.604 B0.000 F200
G1 X67.179 Z-118.860 B0.000 F200
G1 X66.826 Z-119.116 B0.000 F200
G1 X66.473 Z-119.373 B0.000 F200
G1 X66.121 Z-119.629 B0.000 F200
G1 X65.768 Z-119.885 B0.000 F200
G1 X65.415 Z-120.141 B0.000 F200
G1 X65.063 Z-120.398 B0.000 F200
G1 X65.000 Z-120.667 B-0.024 F200
G1 X65.000 Z-120.945 B-0.054 F200
G1 X65.000 Z-121.230 B-0.084 F200
G1 X65.000 Z-121.522 B-0.114 F200
G1 X65.000 Z-121.821 B-0.145 F200
G1 X65.000 Z-122.128 B-0.176 F200
G1 X65.000 Z-122.443 B-0.208 F200
G1 X65.000 Z-122.765 B-0.240 F200
G1 X65.000 Z-123.096 B-0.272 F200
G1 X65.000 Z-123.434 B-0.305 F200
G1 X65.000 Z-123.781 B-0.338 F200
G1 X65.000 Z-124.137 B-0.372 F200
G1 X65.000 Z-124.502 B-0.406 F200
G1 X65.000 Z-124.877 B-0.441 F200
G1 X65.000 Z-125.261 B-0.476 F200
G1 X65.000 Z-125.655 B-0.512 F200
G1 X65.000 Z-125.186 B-0.498 F200
G1 X65.000 Z-124.719 B-0.484 F200
G1 X65.000 Z-124.254 B-0.471 F200
G1 X65.000 Z-123.790 B-0.457 F200
G1 X65.000 Z-123.327 B-0.444 F200
G1 X65.000 Z-122.866 B-0.430 F200
G1 X65.000 Z-122.407 B-0.417 F200
G1 X65.000 Z-121.948 B-0.404 F200
G1 X65.000 Z-121.491 B-0.391 F200
G1 X65.000 Z-121.035 B-0.378 F200
G1 X65.000 Z-120.581 B-0.365 F200
G1 X65.000 Z-120.128 B-0.352 F200
G1 X65.000 Z-119.676 B-0.339 F200
G1 X65.000 Z-119.226 B-0.326 F200
G1 X65.000 Z-118.777 B-0.314 F200
G1 X65.000 Z-118.329 B-0.301 F200
G1 X65.000 Z-117.882 B-0.288 F200
G1 X65.000 Z-117.436 B-0.276 F200
G1 X65.000 Z-116.992 B-0.264 F200
G1 X65.000 Z-116.549 B-0.251 F200
G1 X65.000 Z-116.107 B-0.239 F200
G1 X65.000 Z-115.666 B-0.227 F200
G1 X65.000 Z-115.227 B-0.214 F200
G1 X65.000 Z-114.788 B-0.202 F200
G1 X65.000 Z-114.351 B-0.190 F200
G1 X65.000 Z-113.915 B-0.178 F200
G1 X65.000 Z-113.480 B-0.166 F200
G1 X65.000 Z-113.046 B-0.154 F200
G1 X65.000 Z-112.613 B-0.143 F200
G1 X65.000 Z-112.181 B-0.131 F200
G1 X65.000 Z-111.972 B-0.162 F200
G1 X65.000 Z-111.771 B-0.193 F200
G1 X65.000 Z-111.577 B-0.225 F200
G1 X65.000 Z-111.391 B-0.257 F200
G1 X65.000 Z-111.214 B-0.290 F200
G1 X65.000 Z-111.045 B-0.323 F200
G1 X65.000 Z-110.884 B-0.356 F200
G1 X65.000 Z-110.733 B-0.390 F200
G1 X65.000 Z-110.590 B-0.425 F200
G1 X65.000 Z-110.457 B-0.460 F200
G1 X65.000 Z-110.334 B-0.495 F200
G1 X65.000 Z-110.221 B-0.531 F200
G1 X65.000 Z-110.118 B-0.568 F200
G1 X65.000 Z-110.027 B-0.606 F200
G1 X65.000 Z-109.946 B-0.644 F200
G1 X65.000 Z-109.878 B-0.682 F200
G1 X65.000 Z-109.821 B-0.722 F200
G1 X65.000 Z-109.777 B-0.762 F200
G1 X65.000 Z-109.747 B-0.803 F200
G1 X65.000 Z-109.731 B-0.845 F200
G1 X65.000 Z-109.729 B-0.888 F200
G1 X65.000 Z-109.743 B-0.932 F200
G1 X65.000 Z-109.773 B-0.978 F200
G1 X65.000 Z-109.820 B-1.024 F200
G1 X65.000 Z-109.886 B-1.071 F200
G1 X65.000 Z-109.971 B-1.120 F200
G1 X65.000 Z-110.078 B-1.171 F200
G1 X65.000 Z-110.207 B-1.223 F200
G1 X65.000 Z-110.360 B-1.276 F200
G1 X65.000 Z-110.540 B-1.332 F200
G1 X65.000 Z-110.005 B-1.264 F200
G1 X65.000 Z-109.510 B-1.198 F200
G1 X65.000 Z-109.050 B-1.135 F200
G1 X65.000 Z-108.623 B-1.074 F200
G1 X65.000 Z-108.227 B-1.015 F200
G1 X65.000 Z-107.858 B-0.959 F200
G1 X65.000 Z-107.515 B-0.904 F200
G1 X65.000 Z-107.196 B-0.850 F200
G1 X65.000 Z-106.900 B-0.798 F200
G1 X65.000 Z-106.624 B-0.748 F200
G1 X65.000 Z-106.369 B-0.698 F200
G1 X65.000 Z-106.133 B-0.650 F200
G1 X65.000 Z-105.915 B-0.603 F200
G1 X65.000 Z-105.714 B-0.557 F200
G1 X65.000 Z-105.530 B-0.512 F200
G1 X65.000 Z-105.361 B-0.468 F200
G1 X65.000 Z-105.208 B-0.424 F200
G1 X65.000 Z-105.069 B-0.382 F200
G1 X65.000 Z-104.943 B-0.340 F200
G1 X65.000 Z-104.832 B-0.299 F200
G1 X65.000 Z-104.733 B-0.258 F200
G1 X65.000 Z-104.646 B-0.219 F200
G1 X65.000 Z-104.572 B-0.180 F200
G1 X65.000 Z-104.509 B-0.141 F200
G1 X65.000 Z-104.458 B-0.103 F200
G1 X65.000 Z-104.418 B-0.066 F200
G1 X65.000 Z-104.389 B-0.029 F200
G1 X65.087 Z-104.373 B0.000 F200
G1 X65.523 Z-104.373 B0.000 F200
G1 X65.959 Z-104.373 B0.000 F200
G1 X66.093 Z-103.958 B0.000 F200
G1 X66.228 Z-103.544 B0.000 F200
G1 X66.363 Z-103.129 B0.000 F200
G1 X66.498 Z-102.714 B0.000 F200
G1 X66.632 Z-102.300 B0.000 F200
G1 X66.767 Z-101.885 B0.000 F200
G1 X66.902 Z-101.471 B0.000 F200
G1 X67.036 Z-101.056 B0.000 F200
G1 X67.171 Z-100.641 B0.000 F200
G1 X67.306 Z-100.227 B0.000 F200
G1 X67.441 Z-99.812 B0.000 F200
G1 X67.575 Z-99.398 B0.000 F200
G1 X67.710 Z-98.983 B0.000 F200
G1 X67.845 Z-98.568 B0.000 F200
G1 X67.979 Z-98.154 B0.000 F200
G1 X68.114 Z-97.739 B0.000 F200
G1 X68.249 Z-97.325 B0.000 F200
G1 X68.383 Z-96.910 B0.000 F200
G1 X68.518 Z-96.496 B0.000 F200
G1 X68.653 Z-96.081 B0.000 F200
G1 X68.788 Z-95.666 B0.000 F200
G1 X68.922 Z-95.252 B0.000 F200
G1 X69.057 Z-94.837 B0.000 F200
G1 X69.192 Z-94.423 B0.000 F200
G1 X69.326 Z-94.008 B0.000 F200
G1 X69.461 Z-93.593 B0.000 F200
G1 X69.596 Z-93.179 B0.000 F200
G1 X69.731 Z-92.764 B0.000 F200
G1 X69.865 Z-92.350 B0.000 F200
G1 X70.000 Z-91.935 B0.000 F200
